;FLAVOR:Marlin
;TIME:34648
;Filament used: 34.4997m
;Layer height: 0.16
;MINX:2.705
;MINY:62.705
;MINZ:0.24
;MAXX:232.294
;MAXY:172.294
;MAXZ:21.03
;Generated with Cura_SteamEngine 4.8.0
M140 S70
M105
M190 S70
M104 S210
M105
M109 S210
M82 ;absolute extrusion mode
; Ender 3 Custom Start G-code
G92 E0 ; Reset Extruder
G28 ; Home all axes
G1 Z2.0 F3000 ; Move Z Axis up little to prevent scratching of Heat Bed
G1 X0.1 Y20 Z0.3 F5000.0 ; Move to start position
G1 X0.1 Y200.0 Z0.3 F1500.0 E15 ; Draw the first line
G1 X0.4 Y200.0 Z0.3 F5000.0 ; Move to side a little
G1 X0.4 Y20 Z0.3 F1500.0 E30 ; Draw the second line
G92 E0 ; Reset Extruder
G1 Z2.0 F3000 ; Move Z Axis up little to prevent scratching of Heat Bed
G1 X5 Y20 Z0.3 F5000.0 ; Move over to prevent blob squish
G92 E0
G92 E0
G1 F2700 E-5
;LAYER_COUNT:101
;LAYER:-6
M107
M204 S500
M205 X8 Y8
G0 F9000 X35.312 Y67.669 Z0.24
;TYPE:SUPPORT-INTERFACE
G1 F2700 E0
G1 F1125 X36.195 Y67.237 E0.07847
G1 X36.356 Y67.166 E0.09251
G1 X37.186 Y66.833 E0.1639
G1 X37.334 Y66.779 E0.17648
G1 X37.999 Y66.561 E0.23234
G1 X45.398 Y64.316 E0.84955
G1 X45.501 Y64.287 E0.85809
G1 X46.403 Y64.048 E0.93258
G1 X46.579 Y64.009 E0.94697
G1 X47.484 Y63.839 E1.02047
G1 X47.591 Y63.823 E1.02911
G1 X48.298 Y63.736 E1.08597
G1 X56.061 Y62.971 E1.70865
G1 X57.063 Y62.909 E1.78878
G1 X57.196 Y62.906 E1.7994
G1 X58.119 Y62.916 E1.87309
G1 X58.282 Y62.923 E1.88611
G1 X58.95 Y62.972 E1.93957
G1 X66.67 Y63.732 E2.5588
G1 X67.704 Y63.87 E2.64207
G1 X67.887 Y63.902 E2.6569
G1 X68.748 Y64.084 E2.72714
G1 X68.915 Y64.124 E2.74085
G1 X69.542 Y64.298 E2.79279
G1 X76.969 Y66.551 E3.41233
G1 X77.087 Y66.588 E3.4222
G1 X77.973 Y66.893 E3.497
G1 X78.124 Y66.951 E3.50991
G1 X78.966 Y67.311 E3.58301
G1 X79.108 Y67.377 E3.59551
G1 X79.688 Y67.669 E3.64734
G1 X86.604 Y71.365 E4.27329
G1 X87.458 Y71.863 E4.35221
G1 X87.591 Y71.946 E4.36472
G1 X88.363 Y72.475 E4.43943
G1 X88.446 Y72.536 E4.44765
G1 X88.994 Y72.963 E4.5031
G1 X95.056 Y77.94 E5.1292
G1 X95.794 Y78.591 E5.20775
G1 X95.902 Y78.695 E5.21972
G1 X96.532 Y79.339 E5.29163
G1 X96.644 Y79.461 E5.30485
G1 X97.109 Y80.002 E5.3618
G1 X100.134 Y83.688 E5.74243
G1 X100.591 Y84.177 E5.79586
G1 X101.116 Y84.615 E5.85043
G1 X101.692 Y84.981 E5.90491
G1 X102.309 Y85.273 E5.9594
G1 X102.959 Y85.483 E6.01392
G1 X103.629 Y85.611 E6.06837
G1 X104.311 Y85.653 E6.12292
G1 X104.992 Y85.608 E6.1774
G1 X105.662 Y85.478 E6.23187
G1 X106.311 Y85.264 E6.28642
G1 X106.932 Y84.968 E6.34134
G1 X107.712 Y84.438 E6.41662
G1 X111.526 Y81.307 E6.81051
G1 X111.604 Y81.245 E6.81847
G1 X112.34 Y80.684 E6.89234
G1 X112.496 Y80.575 E6.90753
G1 X113.251 Y80.082 E6.97951
G1 X113.384 Y80.001 E6.99194
G1 X113.974 Y79.668 E7.04602
G1 X119.164 Y76.895 E7.51573
G1 X120.031 Y76.473 E7.5927
G1 X120.172 Y76.41 E7.60503
G1 X120.992 Y76.081 E7.67556
G1 X121.173 Y76.015 E7.69094
G1 X121.805 Y75.805 E7.7441
G1 X127.36 Y74.119 E8.2075
G1 X127.445 Y74.095 E8.21455
G1 X128.364 Y73.853 E8.29041
G1 X128.515 Y73.819 E8.30276
G1 X129.411 Y73.651 E8.37553
G1 X129.562 Y73.627 E8.38773
G1 X130.227 Y73.545 E8.44122
G1 X136.063 Y72.971 E8.90932
G1 X137.065 Y72.909 E8.98946
G1 X137.198 Y72.906 E9.00008
G1 X138.122 Y72.916 E9.07384
G1 X138.278 Y72.923 E9.08631
G1 X138.94 Y72.971 E9.13929
G1 X144.818 Y73.551 E9.61077
G1 X145.751 Y73.677 E9.68593
G1 X145.934 Y73.709 E9.70076
G1 X146.799 Y73.891 E9.77132
G1 X146.951 Y73.929 E9.78382
G1 X147.646 Y74.122 E9.8414
G1 X153.141 Y75.79 E10.2998
G1 X153.294 Y75.839 E10.31262
G1 X154.154 Y76.135 E10.38522
G1 X154.287 Y76.186 E10.39659
G1 X155.141 Y76.551 E10.47073
G1 X155.283 Y76.617 E10.48323
G1 X155.861 Y76.908 E10.53488
G1 X161.048 Y79.68 E11.00435
G1 X161.902 Y80.178 E11.08326
G1 X162.035 Y80.261 E11.09578
G1 X162.802 Y80.787 E11.17002
G1 X162.898 Y80.858 E11.17955
G1 X163.429 Y81.27 E11.2332
G1 X167.94 Y84.972 E11.69902
G1 X168.711 Y85.652 E11.78108
G1 X168.835 Y85.769 E11.79469
G1 X169.487 Y86.437 E11.8692
G1 X169.545 Y86.5 E11.87604
G1 X169.998 Y87.025 E11.93139
G1 X170.745 Y87.935 E12.02537
G1 X171.203 Y88.425 E12.07891
G1 X171.728 Y88.861 E12.13338
G1 X172.304 Y89.228 E12.1879
G1 X172.922 Y89.519 E12.24243
G1 X173.571 Y89.729 E12.29688
G1 X174.241 Y89.857 E12.35133
G1 X174.923 Y89.899 E12.40587
G1 X175.604 Y89.854 E12.46035
G1 X176.274 Y89.724 E12.51483
G1 X176.922 Y89.51 E12.5693
G1 X177.537 Y89.217 E12.62368
G1 X178.034 Y88.903 E12.67061
G1 X178.074 Y88.875 E12.67451
G1 X178.788 Y88.41 E12.74252
G1 X178.951 Y88.31 E12.75779
G1 X179.55 Y87.971 E12.81273
G1 X182.978 Y86.138 E13.12303
G1 X183.834 Y85.721 E13.19904
G1 X184.006 Y85.645 E13.21405
G1 X184.821 Y85.317 E13.28417
G1 X185.008 Y85.249 E13.30006
G1 X185.63 Y85.044 E13.35234
G1 X189.304 Y83.93 E13.6588
G1 X189.403 Y83.902 E13.66701
G1 X190.307 Y83.663 E13.74165
G1 X190.481 Y83.624 E13.75588
G1 X191.378 Y83.456 E13.82873
G1 X191.498 Y83.437 E13.83843
G1 X192.178 Y83.353 E13.89312
G1 X196.063 Y82.971 E14.20473
G1 X197.065 Y82.909 E14.28487
G1 X197.198 Y82.906 E14.29549
G1 X198.122 Y82.916 E14.36925
G1 X198.278 Y82.923 E14.38172
G1 X198.94 Y82.971 E14.4347
G1 X202.867 Y83.359 E14.7497
G1 X203.8 Y83.485 E14.82485
G1 X203.983 Y83.517 E14.83968
G1 X204.845 Y83.699 E14.91
G1 X204.994 Y83.735 E14.92224
G1 X205.656 Y83.917 E14.97704
G1 X209.427 Y85.063 E15.29166
G1 X210.325 Y85.372 E15.36746
G1 X210.471 Y85.428 E15.37994
G1 X211.328 Y85.794 E15.45433
G1 X211.431 Y85.842 E15.4634
G1 X212.04 Y86.148 E15.51781
G1 X215.516 Y88.008 E15.8325
G1 X216.347 Y88.493 E15.90931
G1 X216.491 Y88.584 E15.92291
G1 X217.251 Y89.105 E15.99646
G1 X217.341 Y89.17 E16.00532
G1 X217.916 Y89.62 E16.0636
G1 X220.877 Y92.049 E16.36932
G1 X221.65 Y92.731 E16.45161
G1 X221.758 Y92.835 E16.46357
G1 X222.391 Y93.482 E16.53583
G1 X222.491 Y93.59 E16.54758
G1 X222.956 Y94.13 E16.60446
G1 X225.371 Y97.073 E16.90835
G1 X225.458 Y97.184 E16.91961
G1 X226.017 Y97.92 E16.99339
G1 X226.099 Y98.036 E17.00473
G1 X226.596 Y98.798 E17.07735
G1 X226.683 Y98.939 E17.09057
G1 X227.029 Y99.55 E17.14662
G1 X228.862 Y102.978 E17.45692
G1 X229.279 Y103.834 E17.53293
G1 X229.355 Y104.006 E17.54794
G1 X229.683 Y104.821 E17.61807
G1 X229.747 Y104.996 E17.63294
G1 X229.949 Y105.608 E17.68439
G1 X231.071 Y109.306 E17.99286
G1 X231.337 Y110.307 E18.07554
G1 X231.376 Y110.481 E18.08978
G1 X231.543 Y111.37 E18.16198
G1 X231.563 Y111.498 E18.17232
G1 X231.646 Y112.168 E18.22621
G1 X232.029 Y116.056 E18.53807
G1 X232.091 Y117.066 E18.61885
G1 X232.094 Y117.175 E18.62755
G1 X232.084 Y118.122 E18.70315
G1 X232.077 Y118.278 E18.71561
G1 X232.03 Y118.93 E18.76779
G1 X231.641 Y122.867 E19.08359
G1 X231.515 Y123.8 E19.15874
G1 X231.483 Y123.983 E19.17357
G1 X231.301 Y124.845 E19.2439
G1 X231.265 Y124.994 E19.25614
G1 X231.087 Y125.64 E19.30962
G1 X229.976 Y129.304 E19.61525
G1 X229.935 Y129.434 E19.62613
G1 X229.63 Y130.321 E19.701
G1 X229.572 Y130.471 E19.71384
G1 X229.206 Y131.328 E19.78823
G1 X229.158 Y131.431 E19.7973
G1 X228.852 Y132.04 E19.8517
G1 X226.992 Y135.516 E20.1664
G1 X226.507 Y136.347 E20.24321
G1 X226.416 Y136.491 E20.2568
G1 X225.895 Y137.251 E20.33036
G1 X225.83 Y137.341 E20.33922
G1 X225.384 Y137.91 E20.39693
G1 X222.958 Y140.869 E20.70237
G1 X222.269 Y141.65 E20.7855
G1 X222.165 Y141.758 E20.79747
G1 X221.518 Y142.391 E20.86972
G1 X221.41 Y142.491 E20.88147
G1 X220.87 Y142.956 E20.93836
G1 X217.92 Y145.377 E21.24299
G1 X217.827 Y145.45 E21.25242
G1 X217.092 Y146.009 E21.32613
G1 X216.964 Y146.099 E21.33863
G1 X216.202 Y146.596 E21.41125
G1 X216.06 Y146.683 E21.42454
G1 X215.45 Y147.029 E21.48052
G1 X212.022 Y148.862 E21.79082
G1 X211.166 Y149.279 E21.86683
G1 X210.994 Y149.355 E21.88184
G1 X210.179 Y149.683 E21.95196
G1 X209.993 Y149.751 E21.96777
G1 X209.37 Y149.956 E22.02013
G1 X205.694 Y151.071 E22.32676
G1 X204.693 Y151.337 E22.40944
G1 X204.519 Y151.376 E22.42367
G1 X203.622 Y151.544 E22.49652
G1 X203.502 Y151.563 E22.50622
G1 X202.823 Y151.647 E22.56083
G1 X198.937 Y152.029 E22.87253
G1 X197.935 Y152.091 E22.95266
G1 X197.802 Y152.094 E22.96328
G1 X196.878 Y152.084 E23.03704
G1 X196.722 Y152.077 E23.04951
G1 X196.06 Y152.029 E23.10249
G1 X192.134 Y151.641 E23.41741
G1 X191.201 Y151.515 E23.49256
G1 X191.017 Y151.483 E23.50747
G1 X190.155 Y151.301 E23.57779
G1 X190.006 Y151.265 E23.59003
G1 X189.344 Y151.083 E23.64483
G1 X185.564 Y149.934 E23.9602
G1 X184.675 Y149.628 E24.03525
G1 X184.53 Y149.572 E24.04766
G1 X183.672 Y149.206 E24.12212
G1 X183.569 Y149.158 E24.13119
G1 X182.956 Y148.85 E24.18595
G1 X179.477 Y146.988 E24.50094
G1 X178.666 Y146.514 E24.57592
G1 X178.493 Y146.404 E24.59228
G1 X177.958 Y146.038 E24.64403
G1 X177.382 Y145.695 E24.69754
G1 X176.757 Y145.421 E24.75201
G1 X176.101 Y145.229 E24.80658
G1 X175.427 Y145.122 E24.86105
G1 X174.745 Y145.099 E24.91552
G1 X174.065 Y145.164 E24.97005
G1 X173.399 Y145.314 E25.02455
G1 X172.757 Y145.547 E25.07906
G1 X172.149 Y145.859 E25.13361
G1 X171.586 Y146.244 E25.18806
G1 X171.078 Y146.697 E25.24239
G1 X170.746 Y147.065 E25.28195
G1 X170.028 Y147.941 E25.37237
G1 X169.348 Y148.711 E25.45437
G1 X169.231 Y148.835 E25.46798
G1 X168.563 Y149.487 E25.54249
G1 X168.501 Y149.544 E25.54921
G1 X167.96 Y150.011 E25.60626
G1 X163.483 Y153.686 E26.06862
G1 X163.397 Y153.754 E26.07737
G1 X162.66 Y154.316 E26.15135
G1 X162.494 Y154.432 E26.16752
G1 X161.767 Y154.906 E26.23679
G1 X161.616 Y154.998 E26.25091
G1 X161.048 Y155.32 E26.30303
G1 X155.86 Y158.093 E26.7726
G1 X154.978 Y158.524 E26.85096
G1 X154.822 Y158.593 E26.86458
G1 X153.987 Y158.928 E26.9364
G1 X153.84 Y158.982 E26.9489
G1 X153.291 Y159.163 E26.99504
G1 X153.083 Y159.228 E27.01244
G1 X147.672 Y160.87 E27.46382
G1 X147.538 Y160.908 E27.47493
G1 X146.634 Y161.147 E27.54957
G1 X146.478 Y161.183 E27.56235
G1 X145.584 Y161.35 E27.63495
G1 X145.447 Y161.372 E27.64603
G1 X144.784 Y161.454 E27.69935
G1 X138.937 Y162.029 E28.16834
G1 X137.935 Y162.091 E28.24848
G1 X137.802 Y162.094 E28.25909
G1 X136.878 Y162.084 E28.33286
G1 X136.722 Y162.077 E28.34532
G1 X136.06 Y162.029 E28.3983
G1 X130.183 Y161.449 E28.86971
G1 X129.25 Y161.323 E28.94486
G1 X129.066 Y161.291 E28.95977
G1 X128.2 Y161.109 E29.03041
G1 X128.049 Y161.071 E29.04284
G1 X127.354 Y160.878 E29.10042
G1 X121.859 Y159.21 E29.55881
G1 X121.706 Y159.161 E29.57164
G1 X120.846 Y158.865 E29.64424
G1 X120.714 Y158.814 E29.65554
G1 X119.859 Y158.449 E29.72974
G1 X119.717 Y158.383 E29.74224
G1 X119.127 Y158.086 E29.79497
G1 X113.969 Y155.329 E30.26183
G1 X113.098 Y154.822 E30.34228
G1 X112.961 Y154.736 E30.35519
G1 X112.198 Y154.213 E30.42903
G1 X112.102 Y154.142 E30.43856
G1 X111.562 Y153.723 E30.49312
G1 X107.716 Y150.566 E30.89031
G1 X107.172 Y150.175 E30.94379
G1 X106.573 Y149.848 E30.99826
G1 X105.936 Y149.601 E31.0528
G1 X105.273 Y149.436 E31.10734
G1 X104.596 Y149.355 E31.16176
G1 X103.912 Y149.361 E31.21637
G1 X103.236 Y149.453 E31.27082
G1 X102.576 Y149.629 E31.32535
G1 X101.944 Y149.888 E31.37987
G1 X101.35 Y150.224 E31.43435
G1 X100.798 Y150.636 E31.48933
G1 X100.137 Y151.308 E31.56457
G1 X97.098 Y155.013 E31.94708
G1 X96.409 Y155.794 E32.03022
G1 X96.305 Y155.902 E32.04219
G1 X95.661 Y156.532 E32.1141
G1 X95.539 Y156.644 E32.12732
G1 X95.015 Y157.095 E32.18251
G1 X89.04 Y162 E32.79959
G1 X88.954 Y162.068 E32.80834
G1 X88.206 Y162.637 E32.88336
G1 X88.06 Y162.741 E32.89767
G1 X87.311 Y163.229 E32.96903
G1 X87.183 Y163.307 E32.98099
G1 X86.604 Y163.635 E33.03411
G1 X79.687 Y167.332 E33.66017
G1 X78.805 Y167.763 E33.73853
G1 X78.649 Y167.832 E33.75215
G1 X77.814 Y168.167 E33.82397
G1 X77.667 Y168.221 E33.83647
G1 X77.001 Y168.439 E33.89241
G1 X69.602 Y170.684 E34.50962
G1 X69.499 Y170.713 E34.51816
G1 X68.597 Y170.952 E34.59264
G1 X68.421 Y170.991 E34.60703
G1 X67.516 Y171.161 E34.68054
G1 X67.409 Y171.177 E34.68918
G1 X66.702 Y171.264 E34.74604
G1 X58.939 Y172.029 E35.36871
G1 X57.937 Y172.091 E35.44885
G1 X57.804 Y172.094 E35.45947
G1 X56.881 Y172.084 E35.53315
G1 X56.718 Y172.077 E35.54618
G1 X56.05 Y172.028 E35.59964
G1 X48.329 Y171.268 E36.21894
G1 X47.297 Y171.13 E36.30206
G1 X47.113 Y171.098 E36.31696
G1 X46.252 Y170.916 E36.38721
G1 X46.085 Y170.876 E36.40092
G1 X45.458 Y170.702 E36.45286
G1 X38.013 Y168.444 E37.07389
G1 X37.914 Y168.412 E37.08219
G1 X37.027 Y168.107 E37.15706
G1 X36.877 Y168.049 E37.1699
G1 X36.034 Y167.689 E37.24307
G1 X35.892 Y167.623 E37.25557
G1 X35.3 Y167.325 E37.30848
G1 X28.413 Y163.644 E37.93183
G1 X27.542 Y163.137 E38.01227
G1 X27.402 Y163.049 E38.02547
G1 X26.63 Y162.52 E38.10018
G1 X26.554 Y162.464 E38.10771
G1 X26.006 Y162.037 E38.16317
G1 X19.938 Y157.055 E38.78988
G1 X19.206 Y156.409 E38.86781
G1 X19.097 Y156.304 E38.8799
G1 X18.468 Y155.661 E38.9517
G1 X18.356 Y155.539 E38.96492
G1 X17.965 Y155.086 E39.01268
G1 X12.969 Y149.001 E39.64116
G1 X12.932 Y148.955 E39.64587
G1 X12.363 Y148.206 E39.72095
G1 X12.259 Y148.06 E39.73526
G1 X11.765 Y147.302 E39.80749
G1 X11.686 Y147.172 E39.81963
G1 X11.365 Y146.604 E39.87171
G1 X7.675 Y139.699 E40.49666
G1 X7.233 Y138.797 E40.57684
G1 X7.166 Y138.644 E40.59018
G1 X6.833 Y137.814 E40.66156
G1 X6.779 Y137.666 E40.67414
G1 X6.551 Y136.971 E40.73253
G1 X4.314 Y129.595 E41.34779
G1 X4.285 Y129.492 E41.35634
G1 X4.045 Y128.586 E41.43115
G1 X4.009 Y128.421 E41.44463
G1 X3.839 Y127.516 E41.51814
G1 X3.823 Y127.41 E41.52669
G1 X3.733 Y126.676 E41.58572
G1 X2.971 Y118.94 E42.20623
G1 X2.909 Y117.937 E42.28645
G1 X2.906 Y117.813 E42.29635
G1 X2.916 Y116.881 E42.37075
G1 X2.922 Y116.73 E42.38281
G1 X2.97 Y116.068 E42.4358
G1 X3.732 Y108.33 E43.05646
G1 X3.744 Y108.229 E43.06458
G1 X3.87 Y107.296 E43.13974
G1 X3.902 Y107.113 E43.15456
G1 X4.084 Y106.252 E43.22481
G1 X4.124 Y106.085 E43.23852
G1 X4.298 Y105.458 E43.29046
G1 X6.547 Y98.043 E43.90899
G1 X6.588 Y97.913 E43.91987
G1 X6.896 Y97.018 E43.99542
G1 X6.951 Y96.876 E44.00758
G1 X7.311 Y96.034 E44.08067
G1 X7.378 Y95.891 E44.09328
G1 X7.669 Y95.312 E44.14501
G1 X11.365 Y88.396 E44.77096
G1 X11.863 Y87.542 E44.84988
G1 X11.946 Y87.409 E44.86239
G1 X12.473 Y86.64 E44.93681
G1 X12.536 Y86.554 E44.94532
G1 X12.963 Y86.006 E45.00077
G1 X17.94 Y79.944 E45.62686
G1 X18.591 Y79.206 E45.70542
G1 X18.695 Y79.098 E45.71739
G1 X19.339 Y78.468 E45.7893
G1 X19.461 Y78.356 E45.80252
G1 X20.002 Y77.891 E45.85947
G1 X26.047 Y72.931 E46.48365
G1 X26.794 Y72.363 E46.55856
G1 X26.94 Y72.259 E46.57286
G1 X27.689 Y71.771 E46.64422
G1 X27.821 Y71.69 E46.65659
G1 X28.396 Y71.365 E46.70931
G1 X35.312 Y67.669 E47.33526
G0 F9000 X35.2 Y67.728
G1 F1125 X35.2 Y167.271 E55.28122
G1 F2700 E50.28122
G1 F300 Z0.44
G0 F9000 X36.8 Y168.016 Z0.44
G1 F300 Z0.24
G1 F2700 E55.28122
G1 F1125 X36.8 Y66.987 E63.34579
G1 F2700 E58.34579
G1 F300 Z0.44
G0 F9000 X38.4 Y66.439 Z0.44
G1 F300 Z0.24
G1 F2700 E63.34579
G1 F1125 X38.4 Y168.561 E71.49761
G1 F2700 E66.49761
G1 F300 Z0.44
G0 F9000 X40 Y169.046 Z0.44
G1 F300 Z0.24
G1 F2700 E71.49761
G1 F1125 X40 Y65.953 E79.72694
G1 F2700 E74.72694
G1 F300 Z0.44
G0 F9000 X41.6 Y65.468 Z0.44
G1 F300 Z0.24
G1 F2700 E79.72694
G1 F1125 X41.6 Y169.531 E88.03369
G1 F2700 E83.03369
G1 F300 Z0.44
G0 F9000 X43.2 Y170.017 Z0.44
G1 F300 Z0.24
G1 F2700 E88.03369
G1 F1125 X43.2 Y64.982 E96.41804
G1 F2700 E91.41804
G1 F300 Z0.44
G0 F9000 X44.8 Y64.497 Z0.44
G1 F300 Z0.24
G1 F2700 E96.41804
G1 F1125 X44.8 Y170.502 E104.87982
G1 F2700 E99.87982
G1 F300 Z0.44
G0 F9000 X46.4 Y170.947 Z0.44
G1 F300 Z0.24
G1 F2700 E104.87982
G1 F1125 X46.4 Y64.048 E113.41296
G1 F2700 E108.41296
G1 F300 Z0.44
G0 F9000 X48 Y63.772 Z0.44
G1 F300 Z0.24
G1 F2700 E113.41296
G1 F1125 X48 Y171.224 E121.99024
G1 F2700 E116.99024
G1 F300 Z0.44
G0 F9000 X49.6 Y171.393 Z0.44
G1 F300 Z0.24
G1 F2700 E121.99024
G1 F1125 X49.6 Y63.607 E130.59419
G1 F2700 E125.59419
G1 F300 Z0.44
G0 F9000 X51.2 Y63.45 Z0.44
G1 F300 Z0.24
G1 F2700 E130.59419
G1 F1125 X51.2 Y171.55 E139.2232
G1 F2700 E134.2232
G1 F300 Z0.44
G0 F9000 X52.8 Y171.708 Z0.44
G1 F300 Z0.24
G1 F2700 E139.2232
G1 F1125 X52.8 Y63.292 E147.87743
G1 F2700 E142.87743
G1 F300 Z0.44
G0 F9000 X54.4 Y63.134 Z0.44
G1 F300 Z0.24
G1 F2700 E147.87743
G1 F1125 X54.4 Y171.865 E156.55681
G1 F2700 E151.55681
G1 F300 Z0.44
G0 F9000 X56 Y172.023 Z0.44
G1 F300 Z0.24
G1 F2700 E156.55681
