;FLAVOR:Marlin
;TIME:83104
;Filament used: 97.0226m
;Layer height: 0.28
;MINX:1.5
;MINY:11.5
;MINZ:0.28
;MAXX:233.5
;MAXY:223.5
;MAXZ:20.08
;Generated with Cura_SteamEngine 4.8.0
M140 S70
M105
M190 S70
M104 S210
M105
M109 S210
M82 ;absolute extrusion mode
; Ender 3 Custom Start G-code
G92 E0 ; Reset Extruder
G28 ; Home all axes
G1 Z2.0 F3000 ; Move Z Axis up little to prevent scratching of Heat Bed
G1 X0.1 Y20 Z0.3 F5000.0 ; Move to start position
G1 X0.1 Y200.0 Z0.3 F1500.0 E15 ; Draw the first line
G1 X0.4 Y200.0 Z0.3 F5000.0 ; Move to side a little
G1 X0.4 Y20 Z0.3 F1500.0 E30 ; Draw the second line
G92 E0 ; Reset Extruder
G1 Z2.0 F3000 ; Move Z Axis up little to prevent scratching of Heat Bed
G1 X5 Y20 Z0.3 F5000.0 ; Move over to prevent blob squish
G92 E0
G92 E0
G1 F2700 E-3
;LAYER_COUNT:71
;LAYER:0
M107
G1 F300 Z0.48
G0 F6000 X6.912 Y13.039 Z0.48
;TYPE:SKIRT
G1 F300 Z0.28
G1 F2700 E0
G1 F1200 X7.739 Y12.597 E0.04366
G1 X8.601 Y12.227 E0.08734
G1 X9.491 Y11.931 E0.13102
G1 X10.403 Y11.713 E0.17468
G1 X11.33 Y11.572 E0.21834
G1 X12.201 Y11.513 E0.25899
G1 X12.522 Y11.504 E0.27394
G1 X12.83 Y11.5 E0.28829
G1 X221.793 Y11.5 E10.01848
G1 X222.649 Y11.511 E10.05834
G1 X223.585 Y11.565 E10.102
G1 X224.513 Y11.697 E10.14565
G1 X225.427 Y11.909 E10.18934
G1 X226.319 Y12.198 E10.233
G1 X227.184 Y12.561 E10.27668
G1 X228.014 Y12.997 E10.32033
G1 X228.805 Y13.502 E10.36403
G1 X229.549 Y14.073 E10.4077
G1 X230.242 Y14.705 E10.45138
G1 X230.879 Y15.393 E10.49503
G1 X231.454 Y16.134 E10.53871
G1 X231.965 Y16.92 E10.58236
G1 X232.407 Y17.748 E10.62607
G1 X232.776 Y18.61 E10.66973
G1 X233.071 Y19.5 E10.71339
G1 X233.289 Y20.412 E10.75705
G1 X233.429 Y21.34 E10.80075
G1 X233.487 Y22.201 E10.84093
G1 X233.496 Y22.521 E10.85584
G1 X233.5 Y22.83 E10.87023
G1 X233.499 Y211.9 E19.67412
G1 X233.49 Y212.627 E19.70798
G1 X233.439 Y213.564 E19.75167
G1 X233.307 Y214.492 E19.79532
G1 X233.098 Y215.406 E19.83898
G1 X232.811 Y216.299 E19.88265
G1 X232.449 Y217.165 E19.92636
G1 X232.015 Y217.996 E19.97001
G1 X231.511 Y218.787 E20.01369
G1 X230.942 Y219.532 E20.05734
G1 X230.311 Y220.227 E20.10105
G1 X229.624 Y220.865 E20.1447
G1 X228.885 Y221.442 E20.18836
G1 X228.099 Y221.954 E20.23204
G1 X227.273 Y222.397 E20.27569
G1 X226.411 Y222.769 E20.3194
G1 X225.522 Y223.065 E20.36303
G1 X224.61 Y223.285 E20.40672
G1 X223.683 Y223.426 E20.45038
G1 X222.799 Y223.487 E20.49164
G1 X222.478 Y223.496 E20.50659
G1 X222.17 Y223.5 E20.52093
G1 X13.065 Y223.499 E30.25774
G1 X12.367 Y223.49 E30.29024
G1 X11.431 Y223.438 E30.3339
G1 X10.502 Y223.306 E30.37759
G1 X9.588 Y223.096 E30.42126
G1 X8.695 Y222.809 E30.46493
G1 X7.83 Y222.446 E30.50861
G1 X6.999 Y222.012 E30.55227
G1 X6.208 Y221.508 E30.59594
G1 X5.463 Y220.938 E30.63962
G1 X4.769 Y220.307 E30.6833
G1 X4.132 Y219.62 E30.72692
G1 X3.555 Y218.88 E30.77062
G1 X3.043 Y218.094 E30.8143
G1 X2.6 Y217.267 E30.85798
G1 X2.229 Y216.406 E30.90164
G1 X1.933 Y215.516 E30.94531
G1 X1.714 Y214.604 E30.98898
G1 X1.573 Y213.677 E31.03265
G1 X1.513 Y212.788 E31.07414
G1 X1.504 Y212.455 E31.08965
G1 X1.5 Y212.158 E31.10348
G1 X1.501 Y23.025 E39.9103
G1 X1.51 Y22.36 E39.94127
G1 X1.563 Y21.424 E39.98492
G1 X1.695 Y20.495 E40.02862
G1 X1.906 Y19.581 E40.0723
G1 X2.194 Y18.689 E40.11594
G1 X2.557 Y17.824 E40.15962
G1 X2.992 Y16.993 E40.2033
G1 X3.496 Y16.203 E40.24693
G1 X4.066 Y15.458 E40.29061
G1 X4.698 Y14.764 E40.33432
G1 X5.386 Y14.127 E40.37798
G1 X6.126 Y13.551 E40.42164
G1 X6.912 Y13.039 E40.46532
G0 F6000 X7.291 Y13.282
G1 F1200 X8.111 Y12.864 E40.50818
G1 X8.965 Y12.519 E40.55107
G1 X9.845 Y12.249 E40.59393
G1 X10.745 Y12.057 E40.63678
G1 X11.659 Y11.943 E40.67967
G1 X12.212 Y11.913 E40.70546
G1 X12.533 Y11.904 E40.72041
G1 X12.83 Y11.9 E40.73424
G1 X221.793 Y11.9 E50.46444
G1 X222.643 Y11.911 E50.50402
G1 X223.562 Y11.964 E50.54688
G1 X224.473 Y12.097 E50.58975
G1 X225.369 Y12.308 E50.63262
G1 X226.243 Y12.596 E50.67546
G1 X227.09 Y12.959 E50.71837
G1 X227.901 Y13.394 E50.76123
G1 X228.671 Y13.898 E50.80408
G1 X229.395 Y14.467 E50.84696
G1 X230.067 Y15.097 E50.88985
G1 X230.682 Y15.782 E50.93271
G1 X231.235 Y16.518 E50.97558
G1 X231.722 Y17.299 E51.01844
G1 X232.139 Y18.12 E51.06132
G1 X232.484 Y18.974 E51.1042
G1 X232.753 Y19.854 E51.14705
G1 X232.945 Y20.755 E51.18995
G1 X233.058 Y21.668 E51.23279
G1 X233.087 Y22.212 E51.25815
G1 X233.096 Y22.532 E51.27306
G1 X233.1 Y22.83 E51.28694
G1 X233.099 Y211.895 E60.0906
G1 X233.09 Y212.622 E60.12445
G1 X233.039 Y213.541 E60.16731
G1 X232.908 Y214.453 E60.21021
G1 X232.698 Y215.349 E60.25306
G1 X232.412 Y216.224 E60.29593
G1 X232.051 Y217.071 E60.3388
G1 X231.617 Y217.883 E60.38167
G1 X231.115 Y218.655 E60.42455
G1 X230.547 Y219.38 E60.46744
G1 X229.919 Y220.053 E60.5103
G1 X229.235 Y220.669 E60.55316
G1 X228.5 Y221.223 E60.59602
G1 X227.72 Y221.712 E60.63889
G1 X226.9 Y222.131 E60.68177
G1 X226.047 Y222.477 E60.72463
G1 X225.167 Y222.748 E60.7675
G1 X224.267 Y222.941 E60.81036
G1 X223.353 Y223.056 E60.85326
G1 X222.788 Y223.087 E60.87961
G1 X222.467 Y223.096 E60.89456
G1 X222.17 Y223.1 E60.90839
G1 X13.07 Y223.099 E70.64496
G1 X12.372 Y223.09 E70.67747
G1 X11.453 Y223.038 E70.72033
G1 X10.542 Y222.907 E70.76319
G1 X9.646 Y222.697 E70.80604
G1 X8.771 Y222.41 E70.84892
G1 X7.924 Y222.048 E70.89181
G1 X7.112 Y221.614 E70.93468
G1 X6.341 Y221.112 E70.97752
G1 X5.616 Y220.544 E71.02041
G1 X4.943 Y219.915 E71.0633
G1 X4.328 Y219.231 E71.10613
G1 X3.774 Y218.496 E71.14899
G1 X3.286 Y217.715 E71.19187
G1 X2.867 Y216.895 E71.23475
G1 X2.521 Y216.042 E71.27761
G1 X2.251 Y215.162 E71.32047
G1 X2.058 Y214.261 E71.36338
G1 X1.944 Y213.348 E71.40622
G1 X1.913 Y212.777 E71.43285
G1 X1.904 Y212.444 E71.44836
G1 X1.9 Y212.158 E71.46168
G1 X1.901 Y23.031 E80.26823
G1 X1.91 Y22.366 E80.29919
G1 X1.962 Y21.446 E80.3421
G1 X2.094 Y20.535 E80.38496
G1 X2.305 Y19.639 E80.42783
G1 X2.592 Y18.764 E80.47071
G1 X2.955 Y17.918 E80.51357
G1 X3.389 Y17.106 E80.55645
G1 X3.892 Y16.335 E80.59931
G1 X4.461 Y15.611 E80.64219
G1 X5.089 Y14.939 E80.68502
G1 X5.774 Y14.323 E80.72791
G1 X6.51 Y13.77 E80.77078
G1 X7.291 Y13.282 E80.81366
G0 F6000 X7.669 Y13.531
G1 F1200 X8.482 Y13.138 E80.85571
G1 X9.327 Y12.818 E80.89778
G1 X10.196 Y12.575 E80.9398
G1 X11.084 Y12.409 E80.98187
G1 X12.223 Y12.313 E81.03509
G1 X12.544 Y12.304 E81.05004
G1 X12.83 Y12.3 E81.06336
G1 X221.793 Y12.3 E90.79355
G1 X222.637 Y12.311 E90.83286
G1 X223.539 Y12.364 E90.87493
G1 X224.432 Y12.496 E90.91697
G1 X225.31 Y12.707 E90.95901
G1 X226.166 Y12.995 E91.00107
G1 X226.993 Y13.357 E91.0431
G1 X227.785 Y13.792 E91.08518
G1 X228.536 Y14.294 E91.12724
G1 X229.239 Y14.861 E91.1693
G1 X229.889 Y15.488 E91.21135
G1 X230.481 Y16.17 E91.2534
G1 X231.011 Y16.901 E91.29545
G1 X231.473 Y17.677 E91.3375
G1 X231.866 Y18.49 E91.37955
G1 X232.184 Y19.335 E91.42159
G1 X232.427 Y20.205 E91.46365
G1 X232.592 Y21.093 E91.5057
G1 X232.687 Y22.223 E91.55851
G1 X232.696 Y22.543 E91.57341
G1 X232.7 Y22.83 E91.58678
G1 X232.699 Y211.89 E100.39021
G1 X232.69 Y212.617 E100.42406
G1 X232.639 Y213.519 E100.46613
G1 X232.508 Y214.413 E100.5082
G1 X232.299 Y215.291 E100.55023
G1 X232.013 Y216.148 E100.5923
G1 X231.652 Y216.976 E100.63436
G1 X231.22 Y217.768 E100.67636
G1 X230.719 Y218.52 E100.71844
G1 X230.153 Y219.224 E100.7605
G1 X229.528 Y219.875 E100.80252
G1 X228.847 Y220.469 E100.8446
G1 X228.116 Y221 E100.88667
G1 X227.342 Y221.464 E100.92869
G1 X226.529 Y221.858 E100.97076
G1 X225.685 Y222.178 E101.01279
G1 X224.815 Y222.423 E101.05488
G1 X223.928 Y222.589 E101.0969
G1 X222.777 Y222.687 E101.15069
G1 X222.456 Y222.696 E101.16564
G1 X222.17 Y222.7 E101.17896
G1 X13.075 Y222.699 E110.9153
G1 X12.377 Y222.69 E110.9478
G1 X11.476 Y222.639 E110.98982
G1 X10.582 Y222.507 E111.0319
G1 X9.704 Y222.298 E111.07393
G1 X8.847 Y222.011 E111.11601
G1 X8.02 Y221.65 E111.15803
G1 X7.227 Y221.217 E111.2001
G1 X6.476 Y220.716 E111.24214
G1 X5.772 Y220.15 E111.2842
G1 X5.121 Y219.524 E111.32626
G1 X4.528 Y218.843 E111.3683
G1 X3.998 Y218.112 E111.41035
G1 X3.534 Y217.337 E111.45241
G1 X3.14 Y216.524 E111.49447
G1 X2.82 Y215.68 E111.53651
G1 X2.576 Y214.81 E111.57858
G1 X2.41 Y213.922 E111.62064
G1 X2.313 Y212.767 E111.67462
G1 X2.304 Y212.434 E111.69013
G1 X2.3 Y212.158 E111.70298
G1 X2.301 Y23.036 E120.50929
G1 X2.31 Y22.371 E120.54026
G1 X2.362 Y21.469 E120.58233
G1 X2.494 Y20.576 E120.62436
G1 X2.704 Y19.698 E120.6664
G1 X2.991 Y18.841 E120.70848
G1 X3.353 Y18.014 E120.75052
G1 X3.786 Y17.222 E120.79255
G1 X4.288 Y16.471 E120.83461
G1 X4.855 Y15.767 E120.87671
G1 X5.481 Y15.117 E120.91873
G1 X6.162 Y14.524 E120.96077
G1 X6.894 Y13.994 E121.00286
G1 X7.669 Y13.531 E121.04489
G1 F2700 E118.04489
G1 F300 Z0.48
;MESH:joguina-base.stl
G0 F6000 X221.9 Y211.9 Z0.48
;TYPE:WALL-INNER
G1 F300 Z0.28
G1 F2700 E121.04489
G1 F1200 X13.1 Y211.9 E130.76749
G1 X13.1 Y23.1 E139.55881
G1 X221.9 Y23.1 E149.28142
G1 X221.9 Y211.9 E158.07274
G0 F6000 X222.3 Y212.3
;TYPE:WALL-OUTER
G1 F1200 X12.7 Y212.3 E167.83259
G1 X12.7 Y22.7 E176.66116
G1 X222.3 Y22.7 E186.42101
G1 X222.3 Y212.3 E195.24958
G0 F6000 X221.51 Y211.51
;TYPE:SKIN
G1 F1200 X13.49 Y211.51 E204.93587
G1 X13.49 Y23.49 E213.69087
G1 X221.51 Y23.49 E223.37715
G1 X221.51 Y211.51 E232.13215
G1 F2700 E229.13215
G1 F300 Z0.48
G0 F6000 X221.349 Y23.925 Z0.48
G1 F300 Z0.28
G1 F2700 E232.13215
G1 F1200 X221.074 Y23.649 E232.15029
G0 F6000 X220.508 Y23.649
G1 F1200 X221.349 Y24.491 E232.2057
G0 F6000 X221.349 Y25.057
G1 F1200 X219.942 Y23.649 E232.29839
G0 F6000 X219.377 Y23.649
G1 F1200 X221.349 Y25.622 E232.42828
G0 F6000 X221.349 Y26.188
G1 F1200 X218.811 Y23.649 E232.59545
G0 F6000 X218.245 Y23.649
G1 F1200 X221.349 Y26.754 E232.79988
G0 F6000 X221.349 Y27.319
G1 F1200 X217.679 Y23.649 E233.04156
G0 F6000 X217.114 Y23.649
G1 F1200 X221.349 Y27.885 E233.32047
G0 F6000 X221.349 Y28.451
G1 F1200 X216.548 Y23.649 E233.63666
G0 F6000 X215.982 Y23.649
G1 F1200 X221.349 Y29.016 E233.99009
G0 F6000 X221.349 Y29.582
G1 F1200 X215.417 Y23.649 E234.38075
G0 F6000 X214.851 Y23.649
G1 F1200 X221.349 Y30.148 E234.80869
G0 F6000 X221.349 Y30.713
G1 F1200 X214.285 Y23.649 E235.27387
G0 F6000 X213.72 Y23.649
G1 F1200 X221.349 Y31.279 E235.77628
G0 F6000 X221.349 Y31.845
G1 F1200 X213.154 Y23.649 E236.31597
G0 F6000 X212.588 Y23.649
G1 F1200 X221.349 Y32.41 E236.8929
G0 F6000 X221.349 Y32.976
G1 F1200 X212.023 Y23.649 E237.50706
G0 F6000 X211.457 Y23.649
G1 F1200 X221.349 Y33.542 E238.1585
G0 F6000 X221.349 Y34.108
G1 F1200 X210.891 Y23.649 E238.84721
G0 F6000 X210.326 Y23.649
G1 F1200 X221.349 Y34.673 E239.57313
G0 F6000 X221.349 Y35.239
G1 F1200 X209.76 Y23.649 E240.33631
G0 F6000 X209.194 Y23.649
G1 F1200 X221.349 Y35.805 E241.13678
G0 F6000 X221.349 Y36.37
G1 F1200 X208.629 Y23.649 E241.97444
G0 F6000 X208.063 Y23.649
G1 F1200 X221.349 Y36.936 E242.84938
G0 F6000 X221.349 Y37.502
G1 F1200 X207.497 Y23.649 E243.76159
G0 F6000 X206.931 Y23.649
G1 F1200 X221.349 Y38.067 E244.71104
G0 F6000 X221.349 Y38.633
G1 F1200 X206.366 Y23.649 E245.69773
G0 F6000 X205.8 Y23.649
G1 F1200 X221.349 Y39.199 E246.72169
G0 F6000 X221.349 Y39.764
G1 F1200 X205.234 Y23.649 E247.78289
G0 F6000 X204.669 Y23.649
G1 F1200 X221.349 Y40.33 E248.88133
G0 F6000 X221.349 Y40.896
G1 F1200 X204.103 Y23.649 E250.01704
G0 F6000 X203.537 Y23.649
G1 F1200 X221.349 Y41.461 E251.18999
G0 F6000 X221.349 Y42.027
G1 F1200 X202.972 Y23.649 E252.40018
G0 F6000 X202.406 Y23.649
G1 F1200 X221.349 Y42.593 E253.64764
G0 F6000 X221.349 Y43.158
G1 F1200 X201.84 Y23.649 E254.93235
G0 F6000 X201.275 Y23.649
G1 F1200 X221.349 Y43.724 E256.25429
G0 F6000 X221.349 Y44.29
G1 F1200 X200.709 Y23.649 E257.6135
G0 F6000 X200.143 Y23.649
G1 F1200 X221.349 Y44.856 E259.00998
G0 F6000 X221.349 Y45.421
G1 F1200 X199.578 Y23.649 E260.44367
G0 F6000 X199.012 Y23.649
G1 F1200 X221.349 Y45.987 E261.91464
G0 F6000 X221.349 Y46.553
G1 F1200 X198.446 Y23.649 E263.42287
G0 F6000 X197.881 Y23.649
G1 F1200 X221.349 Y47.118 E264.96831
G0 F6000 X221.349 Y47.684
G1 F1200 X197.315 Y23.649 E266.55102
G0 F6000 X196.749 Y23.649
G1 F1200 X221.349 Y48.25 E268.17101
G0 F6000 X221.349 Y48.815
G1 F1200 X196.183 Y23.649 E269.82823
G0 F6000 X195.618 Y23.649
G1 F1200 X221.349 Y49.381 E271.5227
G0 F6000 X221.349 Y49.947
G1 F1200 X195.052 Y23.649 E273.25443
G0 F6000 X194.486 Y23.649
G1 F1200 X221.349 Y50.512 E275.02341
G0 F6000 X221.349 Y51.078
G1 F1200 X193.921 Y23.649 E276.82962
G0 F6000 X193.355 Y23.649
G1 F1200 X221.349 Y51.644 E278.6731
G0 F6000 X221.349 Y52.209
G1 F1200 X192.789 Y23.649 E280.55383
G0 F6000 X192.224 Y23.649
G1 F1200 X221.349 Y52.775 E282.47179
G0 F6000 X221.349 Y53.341
G1 F1200 X191.658 Y23.649 E284.42703
G0 F6000 X191.092 Y23.649
G1 F1200 X221.349 Y53.906 E286.4195
G0 F6000 X221.349 Y54.472
G1 F1200 X190.527 Y23.649 E288.44922
G0 F6000 X189.961 Y23.649
G1 F1200 X221.349 Y55.038 E290.5162
G0 F6000 X221.349 Y55.604
G1 F1200 X189.395 Y23.649 E292.62046
G0 F6000 X188.83 Y23.649
G1 F1200 X221.349 Y56.169 E294.76193
G0 F6000 X221.349 Y56.735
G1 F1200 X188.264 Y23.649 E296.94066
G0 F6000 X187.698 Y23.649
G1 F1200 X221.349 Y57.301 E299.15667
G0 F6000 X221.349 Y57.866
G1 F1200 X187.132 Y23.649 E301.40992
G0 F6000 X186.567 Y23.649
G1 F1200 X221.349 Y58.432 E303.70041
G0 F6000 X221.349 Y58.998
G1 F1200 X186.001 Y23.649 E306.02817
G0 F6000 X185.435 Y23.649
G1 F1200 X221.349 Y59.563 E308.39317
G0 F6000 X221.349 Y60.129
G1 F1200 X184.87 Y23.649 E310.7954
G0 F6000 X184.304 Y23.649
G1 F1200 X221.349 Y60.695 E313.23491
G0 F6000 X221.349 Y61.26
G1 F1200 X183.738 Y23.649 E315.71166
G0 F6000 X183.173 Y23.649
G1 F1200 X221.349 Y61.826 E318.22565
G0 F6000 X221.349 Y62.392
G1 F1200 X182.607 Y23.649 E320.77691
G0 F6000 X182.041 Y23.649
G1 F1200 X221.349 Y62.957 E323.36541
G0 F6000 X221.349 Y63.523
G1 F1200 X181.476 Y23.649 E325.99115
G0 F6000 X180.91 Y23.649
G1 F1200 X221.349 Y64.089 E328.65416
G0 F6000 X221.349 Y64.655
G1 F1200 X180.344 Y23.649 E331.35444
G0 F6000 X179.779 Y23.649
G1 F1200 X221.349 Y65.22 E334.09193
G0 F6000 X221.349 Y65.786
G1 F1200 X179.213 Y23.649 E336.86669
G0 F6000 X178.647 Y23.649
G1 F1200 X221.349 Y66.352 E339.67872
G0 F6000 X221.349 Y66.917
G1 F1200 X178.082 Y23.649 E342.52796
G0 F6000 X177.516 Y23.649
G1 F1200 X221.349 Y67.483 E345.41447
G0 F6000 X221.349 Y68.049
G1 F1200 X176.95 Y23.649 E348.33825
G0 F6000 X176.384 Y23.649
G1 F1200 X221.349 Y68.614 E351.29927
G0 F6000 X221.349 Y69.18
G1 F1200 X175.819 Y23.649 E354.29753
G0 F6000 X175.253 Y23.649
G1 F1200 X221.349 Y69.746 E357.33307
G0 F6000 X221.349 Y70.311
G1 F1200 X174.687 Y23.649 E360.40584
G0 F6000 X174.122 Y23.649
G1 F1200 X221.349 Y70.877 E363.51585
G0 F6000 X221.349 Y71.443
G1 F1200 X173.556 Y23.649 E366.66314
G0 F6000 X172.99 Y23.649
G1 F1200 X221.349 Y72.008 E369.84766
G0 F6000 X221.349 Y72.574
G1 F1200 X172.425 Y23.649 E373.06942
G0 F6000 X171.859 Y23.649
G1 F1200 X221.349 Y73.14 E376.32845
G0 F6000 X221.349 Y73.705
G1 F1200 X171.293 Y23.649 E379.62473
G0 F6000 X170.728 Y23.649
G1 F1200 X221.349 Y74.271 E382.95824
G0 F6000 X221.349 Y74.837
G1 F1200 X170.162 Y23.649 E386.32902
G0 F6000 X169.596 Y23.649
G1 F1200 X221.349 Y75.403 E389.73708
G0 F6000 X221.349 Y75.968
G1 F1200 X169.031 Y23.649 E393.18234
G0 F6000 X168.465 Y23.649
G1 F1200 X221.349 Y76.534 E396.66488
G0 F6000 X221.349 Y77.1
G1 F1200 X167.899 Y23.649 E400.18468
G0 F6000 X167.333 Y23.649
G1 F1200 X221.349 Y77.665 E403.74173
G0 F6000 X221.349 Y78.231
G1 F1200 X166.768 Y23.649 E407.33601
G0 F6000 X166.202 Y23.649
G1 F1200 X221.349 Y78.797 E410.96757
G0 F6000 X221.349 Y79.362
G1 F1200 X165.636 Y23.649 E414.63637
G0 F6000 X165.071 Y23.649
G1 F1200 X221.349 Y79.928 E418.3424
G0 F6000 X221.349 Y80.494
G1 F1200 X164.505 Y23.649 E422.08571
G0 F6000 X163.939 Y23.649
G1 F1200 X221.349 Y81.059 E425.86626
G0 F6000 X221.349 Y81.625
G1 F1200 X163.374 Y23.649 E429.68404
G0 F6000 X162.808 Y23.649
G1 F1200 X221.349 Y82.191 E433.5391
G0 F6000 X221.349 Y82.756
G1 F1200 X162.242 Y23.649 E437.4314
G0 F6000 X161.677 Y23.649
G1 F1200 X221.349 Y83.322 E441.36093
G0 F6000 X221.349 Y83.888
G1 F1200 X161.111 Y23.649 E445.32774
G0 F6000 X160.545 Y23.649
G1 F1200 X221.349 Y84.454 E449.33182
