;FLAVOR:Marlin
;TIME:42553
;Filament used: 42.93m
;Layer height: 0.16
;MINX:2.699
;MINY:62.7
;MINZ:0.24
;MAXX:232.3
;MAXY:172.3
;MAXZ:21.03
;Generated with Cura_SteamEngine 4.8.0
M140 S70
M105
M190 S70
M104 S210
M105
M109 S210
M82 ;absolute extrusion mode
; Ender 3 Custom Start G-code
G92 E0 ; Reset Extruder
G28 ; Home all axes
G1 Z2.0 F3000 ; Move Z Axis up little to prevent scratching of Heat Bed
G1 X0.1 Y20 Z0.3 F5000.0 ; Move to start position
G1 X0.1 Y200.0 Z0.3 F1500.0 E15 ; Draw the first line
G1 X0.4 Y200.0 Z0.3 F5000.0 ; Move to side a little
G1 X0.4 Y20 Z0.3 F1500.0 E30 ; Draw the second line
G92 E0 ; Reset Extruder
G1 Z2.0 F3000 ; Move Z Axis up little to prevent scratching of Heat Bed
G1 X5 Y20 Z0.3 F5000.0 ; Move over to prevent blob squish
G92 E0
G92 E0
G1 F2700 E-5
;LAYER_COUNT:101
;LAYER:-6
M107
M204 S500
M205 X8 Y8
G0 F9000 X13.883 Y63.358 Z0.24
;TYPE:SUPPORT-INTERFACE
G1 F2700 E0
G1 F1125 X14.778 Y63.158 E0.0732
G1 X14.908 Y63.135 E0.08374
G1 X15.813 Y63.001 E0.15677
G1 X15.982 Y62.983 E0.17034
G1 X16.871 Y62.917 E0.2415
G1 X17.055 Y62.908 E0.2562
G1 X17.56 Y62.9 E0.29652
G1 X97.503 Y62.901 E6.67792
G1 X98.504 Y62.937 E6.75787
G1 X98.627 Y62.946 E6.76772
G1 X99.544 Y63.048 E6.84137
G1 X99.719 Y63.073 E6.85548
G1 X100.608 Y63.237 E6.92764
G1 X100.731 Y63.265 E6.93771
G1 X101.625 Y63.499 E7.01147
G1 X101.788 Y63.548 E7.02506
G1 X102.63 Y63.834 E7.09604
G1 X102.796 Y63.898 E7.11025
G1 X103.599 Y64.239 E7.17989
G1 X103.788 Y64.327 E7.19653
G1 X104.582 Y64.735 E7.26779
G1 X104.699 Y64.802 E7.27855
G1 X105.478 Y65.276 E7.35134
G1 X105.629 Y65.376 E7.3658
G1 X106.343 Y65.887 E7.43588
G1 X106.491 Y66 E7.45075
G1 X107.182 Y66.576 E7.52256
G1 X107.295 Y66.677 E7.53465
G1 X107.944 Y67.302 E7.60658
G1 X108.064 Y67.427 E7.62041
G1 X108.667 Y68.098 E7.69242
G1 X108.763 Y68.214 E7.70444
G1 X109.322 Y68.938 E7.77745
G1 X109.416 Y69.069 E7.79032
G1 X109.916 Y69.823 E7.86254
G1 X109.987 Y69.941 E7.87354
G1 X110.105 Y70.151 E7.89276
G1 X110.469 Y70.712 E7.94615
G1 X110.908 Y71.235 E8.00065
G1 X111.411 Y71.698 E8.05522
G1 X111.968 Y72.093 E8.10973
G1 X112.57 Y72.415 E8.16423
G1 X113.208 Y72.658 E8.21873
G1 X113.876 Y72.82 E8.27359
G1 X114.793 Y72.9 E8.34707
G1 X167.503 Y72.901 E12.55461
G1 X168.504 Y72.937 E12.63457
G1 X168.627 Y72.946 E12.64441
G1 X169.544 Y73.048 E12.71806
G1 X169.719 Y73.073 E12.73217
G1 X170.608 Y73.237 E12.80433
G1 X170.731 Y73.265 E12.8144
G1 X171.625 Y73.499 E12.88817
G1 X171.788 Y73.548 E12.90176
G1 X172.63 Y73.834 E12.97274
G1 X172.796 Y73.898 E12.98694
G1 X173.599 Y74.239 E13.05658
G1 X173.788 Y74.327 E13.07322
G1 X174.582 Y74.735 E13.14448
G1 X174.699 Y74.802 E13.15524
G1 X175.478 Y75.276 E13.22803
G1 X175.629 Y75.376 E13.24249
G1 X176.343 Y75.887 E13.31258
G1 X176.491 Y76 E13.32744
G1 X177.182 Y76.576 E13.39925
G1 X177.295 Y76.677 E13.41135
G1 X177.944 Y77.302 E13.48327
G1 X178.064 Y77.427 E13.4971
G1 X178.667 Y78.098 E13.56912
G1 X178.763 Y78.214 E13.58114
G1 X179.313 Y78.926 E13.65295
G1 X179.426 Y79.085 E13.66852
G1 X179.916 Y79.823 E13.73924
G1 X179.987 Y79.941 E13.75023
G1 X180.105 Y80.151 E13.76946
G1 X180.469 Y80.712 E13.82284
G1 X180.908 Y81.235 E13.87735
G1 X181.411 Y81.698 E13.93192
G1 X181.968 Y82.093 E13.98642
G1 X182.57 Y82.415 E14.04092
G1 X183.208 Y82.658 E14.09542
G1 X183.876 Y82.82 E14.15029
G1 X184.793 Y82.9 E14.22376
G1 X217.503 Y82.901 E16.83482
G1 X218.504 Y82.937 E16.91477
G1 X218.627 Y82.946 E16.92462
G1 X219.544 Y83.048 E16.99827
G1 X219.719 Y83.073 E17.01238
G1 X220.608 Y83.237 E17.08454
G1 X220.731 Y83.265 E17.09461
G1 X221.625 Y83.499 E17.16838
G1 X221.788 Y83.548 E17.18196
G1 X222.63 Y83.834 E17.25295
G1 X222.796 Y83.898 E17.26715
G1 X223.599 Y84.239 E17.33679
G1 X223.788 Y84.327 E17.35343
G1 X224.582 Y84.735 E17.42469
G1 X224.699 Y84.802 E17.43545
G1 X225.478 Y85.276 E17.50824
G1 X225.629 Y85.376 E17.5227
G1 X226.343 Y85.887 E17.59278
G1 X226.491 Y86 E17.60765
G1 X227.182 Y86.576 E17.67946
G1 X227.295 Y86.677 E17.69156
G1 X227.944 Y87.302 E17.76348
G1 X228.064 Y87.427 E17.77731
G1 X228.667 Y88.098 E17.84932
G1 X228.763 Y88.214 E17.86134
G1 X229.313 Y88.926 E17.93316
G1 X229.426 Y89.085 E17.94873
G1 X229.916 Y89.823 E18.01944
G1 X229.992 Y89.949 E18.03119
G1 X230.438 Y90.743 E18.10388
G1 X230.516 Y90.893 E18.11738
G1 X230.899 Y91.708 E18.18926
G1 X230.959 Y91.851 E18.20164
G1 X231.288 Y92.71 E18.27507
G1 X231.34 Y92.86 E18.28774
G1 X231.595 Y93.71 E18.35858
G1 X231.642 Y93.883 E18.37289
G1 X231.84 Y94.769 E18.44536
G1 X231.865 Y94.908 E18.45663
G1 X231.998 Y95.807 E18.52917
G1 X232.016 Y95.969 E18.54218
G1 X232.083 Y96.871 E18.61438
G1 X232.092 Y97.055 E18.62909
G1 X232.1 Y97.556 E18.66909
G1 X232.1 Y137.486 E21.85647
G1 X232.064 Y138.492 E21.93683
G1 X232.054 Y138.627 E21.94763
G1 X231.952 Y139.544 E22.02128
G1 X231.927 Y139.719 E22.03539
G1 X231.765 Y140.597 E22.10666
G1 X231.735 Y140.731 E22.11762
G1 X231.504 Y141.616 E22.19064
G1 X231.452 Y141.788 E22.20498
G1 X231.166 Y142.63 E22.27596
G1 X231.102 Y142.796 E22.29016
G1 X230.761 Y143.599 E22.3598
G1 X230.68 Y143.774 E22.3752
G1 X230.265 Y144.582 E22.4477
G1 X230.198 Y144.699 E22.45847
G1 X229.724 Y145.478 E22.53126
G1 X229.624 Y145.629 E22.54571
G1 X229.113 Y146.343 E22.6158
G1 X229 Y146.491 E22.63066
G1 X228.424 Y147.182 E22.70247
G1 X228.323 Y147.295 E22.71457
G1 X227.698 Y147.944 E22.78649
G1 X227.573 Y148.064 E22.80033
G1 X226.903 Y148.666 E22.87223
G1 X226.786 Y148.763 E22.88436
G1 X226.074 Y149.313 E22.95618
G1 X225.915 Y149.426 E22.97175
G1 X225.177 Y149.916 E23.04246
G1 X225.051 Y149.992 E23.0542
G1 X224.257 Y150.438 E23.1269
G1 X224.106 Y150.516 E23.14047
G1 X223.292 Y150.899 E23.21228
G1 X223.149 Y150.959 E23.22466
G1 X222.29 Y151.288 E23.29808
G1 X222.14 Y151.34 E23.31075
G1 X221.29 Y151.595 E23.38159
G1 X221.117 Y151.642 E23.3959
G1 X220.222 Y151.842 E23.46911
G1 X220.092 Y151.865 E23.47965
G1 X219.187 Y151.999 E23.55267
G1 X219.019 Y152.017 E23.56616
G1 X218.129 Y152.083 E23.6374
G1 X217.945 Y152.092 E23.65211
G1 X217.44 Y152.1 E23.69242
G1 X184.803 Y152.1 E26.29765
G1 X184.135 Y152.142 E26.35108
G1 X183.464 Y152.271 E26.40562
G1 X182.815 Y152.484 E26.46014
G1 X182.198 Y152.776 E26.51463
G1 X181.623 Y153.144 E26.56913
G1 X181.099 Y153.582 E26.62364
G1 X180.634 Y154.083 E26.67821
G1 X180.214 Y154.676 E26.73621
G1 X179.738 Y155.457 E26.80922
G1 X179.624 Y155.629 E26.82569
G1 X179.113 Y156.343 E26.89578
G1 X179 Y156.491 E26.91064
G1 X178.424 Y157.182 E26.98245
G1 X178.323 Y157.295 E26.99455
G1 X177.698 Y157.944 E27.06647
G1 X177.573 Y158.064 E27.08031
G1 X176.903 Y158.666 E27.15221
G1 X176.786 Y158.763 E27.16434
G1 X176.074 Y159.313 E27.23615
G1 X175.915 Y159.426 E27.25173
G1 X175.177 Y159.916 E27.32244
G1 X175.051 Y159.992 E27.33418
G1 X174.257 Y160.438 E27.40688
G1 X174.106 Y160.516 E27.42045
G1 X173.292 Y160.899 E27.49226
G1 X173.149 Y160.959 E27.50463
G1 X172.29 Y161.288 E27.57806
G1 X172.14 Y161.34 E27.59073
G1 X171.29 Y161.595 E27.66157
G1 X171.117 Y161.642 E27.67588
G1 X170.222 Y161.842 E27.74909
G1 X170.092 Y161.865 E27.75963
G1 X169.187 Y161.999 E27.83265
G1 X169.019 Y162.017 E27.84614
G1 X168.129 Y162.083 E27.91738
G1 X167.945 Y162.092 E27.93209
G1 X167.44 Y162.1 E27.9724
G1 X114.803 Y162.1 E32.17411
G1 X114.135 Y162.142 E32.22754
G1 X113.464 Y162.271 E32.28209
G1 X112.815 Y162.484 E32.33661
G1 X112.198 Y162.776 E32.3911
G1 X111.623 Y163.144 E32.44559
G1 X111.099 Y163.582 E32.50011
G1 X110.634 Y164.083 E32.55467
G1 X110.214 Y164.676 E32.61268
G1 X109.738 Y165.457 E32.68569
G1 X109.624 Y165.629 E32.70216
G1 X109.113 Y166.343 E32.77225
G1 X109 Y166.491 E32.78711
G1 X108.424 Y167.182 E32.85892
G1 X108.323 Y167.295 E32.87102
G1 X107.698 Y167.944 E32.94294
G1 X107.573 Y168.064 E32.95677
G1 X106.903 Y168.666 E33.02867
G1 X106.786 Y168.763 E33.0408
G1 X106.074 Y169.313 E33.11262
G1 X105.915 Y169.426 E33.12819
G1 X105.177 Y169.916 E33.1989
G1 X105.051 Y169.992 E33.21065
G1 X104.257 Y170.438 E33.28335
G1 X104.106 Y170.516 E33.29691
G1 X103.292 Y170.899 E33.36872
G1 X103.149 Y170.959 E33.3811
G1 X102.29 Y171.288 E33.45453
G1 X102.14 Y171.34 E33.4672
G1 X101.29 Y171.595 E33.53804
G1 X101.117 Y171.642 E33.55235
G1 X100.222 Y171.842 E33.62555
G1 X100.092 Y171.865 E33.63609
G1 X99.187 Y171.999 E33.70912
G1 X99.019 Y172.017 E33.72261
G1 X98.129 Y172.083 E33.79385
G1 X97.945 Y172.092 E33.80855
G1 X97.44 Y172.1 E33.84887
G1 X17.497 Y172.099 E40.23026
G1 X16.496 Y172.063 E40.31022
G1 X16.373 Y172.054 E40.32006
G1 X15.456 Y171.952 E40.39371
G1 X15.281 Y171.927 E40.40783
G1 X14.392 Y171.763 E40.47999
G1 X14.269 Y171.735 E40.49006
G1 X13.375 Y171.501 E40.56382
G1 X13.212 Y171.452 E40.57741
G1 X12.37 Y171.166 E40.64839
G1 X12.204 Y171.102 E40.66259
G1 X11.401 Y170.761 E40.73223
G1 X11.212 Y170.673 E40.74888
G1 X10.418 Y170.265 E40.82013
G1 X10.301 Y170.198 E40.8309
G1 X9.522 Y169.724 E40.90369
G1 X9.371 Y169.624 E40.91814
G1 X8.657 Y169.113 E40.98823
G1 X8.509 Y169 E41.00309
G1 X7.818 Y168.424 E41.0749
G1 X7.705 Y168.323 E41.087
G1 X7.056 Y167.698 E41.15892
G1 X6.936 Y167.573 E41.17276
G1 X6.333 Y166.902 E41.24477
G1 X6.236 Y166.784 E41.25696
G1 X5.678 Y166.062 E41.3298
G1 X5.574 Y165.915 E41.34418
G1 X5.081 Y165.172 E41.41535
G1 X5.008 Y165.051 E41.42663
G1 X4.556 Y164.246 E41.50033
G1 X4.484 Y164.107 E41.51282
G1 X4.101 Y163.291 E41.58478
G1 X4.035 Y163.137 E41.59815
G1 X3.714 Y162.298 E41.66986
G1 X3.656 Y162.127 E41.68427
G1 X3.403 Y161.284 E41.75453
G1 X3.358 Y161.117 E41.76834
G1 X3.157 Y160.216 E41.84203
G1 X3.135 Y160.092 E41.85208
G1 X3 Y159.178 E41.92583
G1 X2.983 Y159.018 E41.93867
G1 X2.917 Y158.126 E42.01007
G1 X2.908 Y157.945 E42.02454
G1 X2.9 Y157.444 E42.06454
G1 X2.9 Y77.514 E48.44489
G1 X2.936 Y76.51 E48.52509
G1 X2.947 Y76.37 E48.5363
G1 X3.048 Y75.456 E48.6097
G1 X3.073 Y75.281 E48.62381
G1 X3.235 Y74.403 E48.69508
G1 X3.265 Y74.269 E48.70604
G1 X3.496 Y73.384 E48.77906
G1 X3.548 Y73.212 E48.7934
G1 X3.834 Y72.37 E48.86438
G1 X3.898 Y72.204 E48.87858
G1 X4.239 Y71.401 E48.94822
G1 X4.32 Y71.226 E48.96362
G1 X4.735 Y70.418 E49.03612
G1 X4.802 Y70.301 E49.04689
G1 X5.276 Y69.522 E49.11968
G1 X5.376 Y69.371 E49.13413
G1 X5.887 Y68.657 E49.20422
G1 X6 Y68.509 E49.21908
G1 X6.576 Y67.818 E49.29089
G1 X6.677 Y67.705 E49.30299
G1 X7.302 Y67.056 E49.37491
G1 X7.427 Y66.936 E49.38875
G1 X8.098 Y66.333 E49.46076
G1 X8.214 Y66.237 E49.47278
G1 X8.926 Y65.687 E49.54459
G1 X9.085 Y65.574 E49.56017
G1 X9.823 Y65.084 E49.63088
G1 X9.949 Y65.008 E49.64262
G1 X10.743 Y64.562 E49.71532
G1 X10.893 Y64.484 E49.72882
G1 X11.708 Y64.101 E49.8007
G1 X11.851 Y64.041 E49.81308
G1 X12.71 Y63.712 E49.8865
G1 X12.86 Y63.66 E49.89918
G1 X13.71 Y63.405 E49.97001
G1 X13.883 Y63.358 E49.98432
G0 F9000 X14.4 Y63.242
G1 F1125 X14.4 Y171.764 E58.64702
G1 F2700 E53.64702
G1 F300 Z0.44
G0 F9000 X16 Y172.012 Z0.44
G1 F300 Z0.24
G1 F2700 E58.64702
G1 F1125 X16 Y62.981 E67.35035
G1 F2700 E62.35035
G1 F300 Z0.44
G0 F9000 X17.6 Y62.901 Z0.44
G1 F300 Z0.24
G1 F2700 E67.35035
G1 F1125 X17.6 Y172.099 E76.067
G1 F2700 E71.067
G1 F300 Z0.44
G0 F9000 X19.2 Y172.099 Z0.44
G1 F300 Z0.24
G1 F2700 E76.067
G1 F1125 X19.2 Y62.901 E84.78366
G1 F2700 E79.78366
G1 F300 Z0.44
G0 F9000 X20.8 Y62.901 Z0.44
G1 F300 Z0.24
G1 F2700 E84.78366
G1 F1125 X20.8 Y172.099 E93.50031
G1 F2700 E88.50031
G1 F300 Z0.44
G0 F9000 X22.4 Y172.099 Z0.44
G1 F300 Z0.24
G1 F2700 E93.50031
G1 F1125 X22.4 Y62.901 E102.21697
G1 F2700 E97.21697
G1 F300 Z0.44
G0 F9000 X24 Y62.901 Z0.44
G1 F300 Z0.24
G1 F2700 E102.21697
G1 F1125 X24 Y172.099 E110.93363
G1 F2700 E105.93363
G1 F300 Z0.44
G0 F9000 X25.6 Y172.099 Z0.44
G1 F300 Z0.24
G1 F2700 E110.93363
G1 F1125 X25.6 Y62.901 E119.65028
G1 F2700 E114.65028
G1 F300 Z0.44
G0 F9000 X27.2 Y62.901 Z0.44
G1 F300 Z0.24
G1 F2700 E119.65028
G1 F1125 X27.2 Y172.099 E128.36694
G1 F2700 E123.36694
G1 F300 Z0.44
G0 F9000 X28.8 Y172.099 Z0.44
G1 F300 Z0.24
G1 F2700 E128.36694
G1 F1125 X28.8 Y62.901 E137.0836
G1 F2700 E132.0836
G1 F300 Z0.44
G0 F9000 X30.4 Y62.901 Z0.44
G1 F300 Z0.24
G1 F2700 E137.0836
G1 F1125 X30.4 Y172.099 E145.80025
G1 F2700 E140.80025
G1 F300 Z0.44
G0 F9000 X32 Y172.099 Z0.44
G1 F300 Z0.24
G1 F2700 E145.80025
G1 F1125 X32 Y62.901 E154.51691
G1 F2700 E149.51691
G1 F300 Z0.44
G0 F9000 X33.6 Y62.901 Z0.44
G1 F300 Z0.24
G1 F2700 E154.51691
G1 F1125 X33.6 Y172.099 E163.23357
G1 F2700 E158.23357
G1 F300 Z0.44
G0 F9000 X35.2 Y172.099 Z0.44
G1 F300 Z0.24
G1 F2700 E163.23357
G1 F1125 X35.2 Y62.901 E171.95022
G1 F2700 E166.95022
G1 F300 Z0.44
G0 F9000 X36.8 Y62.901 Z0.44
G1 F300 Z0.24
G1 F2700 E171.95022
G1 F1125 X36.8 Y172.099 E180.66688
G1 F2700 E175.66688
G1 F300 Z0.44
G0 F9000 X38.4 Y172.099 Z0.44
G1 F300 Z0.24
G1 F2700 E180.66688
G1 F1125 X38.4 Y62.901 E189.38354
G1 F2700 E184.38354
G1 F300 Z0.44
G0 F9000 X40 Y62.901 Z0.44
G1 F300 Z0.24
G1 F2700 E189.38354
G1 F1125 X40 Y172.099 E198.10019
G1 F2700 E193.10019
G1 F300 Z0.44
G0 F9000 X41.6 Y172.099 Z0.44
G1 F300 Z0.24
G1 F2700 E198.10019
G1 F1125 X41.6 Y62.901 E206.81685
G1 F2700 E201.81685
G1 F300 Z0.44
G0 F9000 X43.2 Y62.901 Z0.44
G1 F300 Z0.24
G1 F2700 E206.81685
G1 F1125 X43.2 Y172.099 E215.53351
G1 F2700 E210.53351
G1 F300 Z0.44
G0 F9000 X44.8 Y172.099 Z0.44
G1 F300 Z0.24
G1 F2700 E215.53351
G1 F1125 X44.8 Y62.901 E224.25016
G1 F2700 E219.25016
G1 F300 Z0.44
G0 F9000 X46.4 Y62.901 Z0.44
G1 F300 Z0.24
G1 F2700 E224.25016
G1 F1125 X46.4 Y172.099 E232.96682
G1 F2700 E227.96682
G1 F300 Z0.44
G0 F9000 X48 Y172.099 Z0.44
G1 F300 Z0.24
G1 F2700 E232.96682
G1 F1125 X48 Y62.901 E241.68348
G1 F2700 E236.68348
G1 F300 Z0.44
G0 F9000 X49.6 Y62.901 Z0.44
G1 F300 Z0.24
G1 F2700 E241.68348
G1 F1125 X49.6 Y172.099 E250.40013
G1 F2700 E245.40013
G1 F300 Z0.44
G0 F9000 X51.2 Y172.099 Z0.44
G1 F300 Z0.24
G1 F2700 E250.40013
G1 F1125 X51.2 Y62.901 E259.11679
G1 F2700 E254.11679
G1 F300 Z0.44
G0 F9000 X52.8 Y62.901 Z0.44
G1 F300 Z0.24
G1 F2700 E259.11679
G1 F1125 X52.8 Y172.099 E267.83345
G1 F2700 E262.83345
G1 F300 Z0.44
G0 F9000 X54.4 Y172.099 Z0.44
G1 F300 Z0.24
G1 F2700 E267.83345
G1 F1125 X54.4 Y62.901 E276.5501
G1 F2700 E271.5501
G1 F300 Z0.44
G0 F9000 X56 Y62.901 Z0.44
G1 F300 Z0.24
G1 F2700 E276.5501
G1 F1125 X56 Y172.099 E285.26676
G1 F2700 E280.26676
G1 F300 Z0.44
G0 F9000 X57.6 Y172.099 Z0.44
G1 F300 Z0.24
G1 F2700 E285.26676
G1 F1125 X57.6 Y62.901 E293.98342
G1 F2700 E288.98342
G1 F300 Z0.44
G0 F9000 X59.2 Y62.901 Z0.44
G1 F300 Z0.24
G1 F2700 E293.98342
G1 F1125 X59.2 Y172.099 E302.70007
G1 F2700 E297.70007
G1 F300 Z0.44
G0 F9000 X60.8 Y172.099 Z0.44
G1 F300 Z0.24
G1 F2700 E302.70007
G1 F1125 X60.8 Y62.901 E311.41673
G1 F2700 E306.41673
G1 F300 Z0.44
G0 F9000 X62.4 Y62.901 Z0.44
G1 F300 Z0.24
G1 F2700 E311.41673
G1 F1125 X62.4 Y172.099 E320.13339
G1 F2700 E315.13339
G1 F300 Z0.44
G0 F9000 X64 Y172.099 Z0.44
G1 F300 Z0.24
G1 F2700 E320.13339
G1 F1125 X64 Y62.901 E328.85004
G1 F2700 E323.85004
G1 F300 Z0.44
G0 F9000 X65.6 Y62.901 Z0.44
G1 F300 Z0.24
G1 F2700 E328.85004
G1 F1125 X65.6 Y172.099 E337.5667
G1 F2700 E332.5667
G1 F300 Z0.44
G0 F9000 X67.2 Y172.099 Z0.44
G1 F300 Z0.24
G1 F2700 E337.5667
G1 F1125 X67.2 Y62.901 E346.28335
G1 F2700 E341.28335
G1 F300 Z0.44
G0 F9000 X68.8 Y62.901 Z0.44
G1 F300 Z0.24
G1 F2700 E346.28335
G1 F1125 X68.8 Y172.099 E355.00001
G1 F2700 E350.00001
G1 F300 Z0.44
G0 F9000 X70.4 Y172.099 Z0.44
G1 F300 Z0.24
G1 F2700 E355.00001
G1 F1125 X70.4 Y62.901 E363.71667
G1 F2700 E358.71667
G1 F300 Z0.44
G0 F9000 X72 Y62.901 Z0.44
G1 F300 Z0.24
G1 F2700 E363.71667
G1 F1125 X72 Y172.099 E372.43332
G1 F2700 E367.43332
G1 F300 Z0.44
G0 F9000 X73.6 Y172.099 Z0.44
G1 F300 Z0.24
G1 F2700 E372.43332
G1 F1125 X73.6 Y62.901 E381.14998
G1 F2700 E376.14998
G1 F300 Z0.44
G0 F9000 X75.2 Y62.901 Z0.44
G1 F300 Z0.24
G1 F2700 E381.14998
G1 F1125 X75.2 Y172.099 E389.86664
G1 F2700 E384.86664
G1 F300 Z0.44
G0 F9000 X76.8 Y172.099 Z0.44
G1 F300 Z0.24
G1 F2700 E389.86664
G1 F1125 X76.8 Y62.901 E398.58329
G1 F2700 E393.58329
G1 F300 Z0.44
G0 F9000 X78.4 Y62.901 Z0.44
G1 F300 Z0.24
G1 F2700 E398.58329
G1 F1125 X78.4 Y172.099 E407.29995
G1 F2700 E402.29995
G1 F300 Z0.44
G0 F9000 X80 Y172.099 Z0.44
G1 F300 Z0.24
G1 F2700 E407.29995
G1 F1125 X80 Y62.901 E416.01661
