;FLAVOR:Marlin
;TIME:43659
;Filament used: 38.0609m
;Layer height: 0.16
;MINX:9.7
;MINY:69.7
;MINZ:0.2
;MAXX:225.3
;MAXY:165.3
;MAXZ:20.08
;Generated with Cura_SteamEngine 4.8.0
M140 S70
M105
M190 S70
M104 S210
M105
M109 S210
M82 ;absolute extrusion mode
; Ender 3 Custom Start G-code
G92 E0 ; Reset Extruder
G28 ; Home all axes
G1 Z2.0 F3000 ; Move Z Axis up little to prevent scratching of Heat Bed
G1 X0.1 Y20 Z0.3 F5000.0 ; Move to start position
G1 X0.1 Y200.0 Z0.3 F1500.0 E15 ; Draw the first line
G1 X0.4 Y200.0 Z0.3 F5000.0 ; Move to side a little
G1 X0.4 Y20 Z0.3 F1500.0 E30 ; Draw the second line
G92 E0 ; Reset Extruder
G1 Z2.0 F3000 ; Move Z Axis up little to prevent scratching of Heat Bed
G1 X5 Y20 Z0.3 F5000.0 ; Move over to prevent blob squish
G92 E0
G92 E0
G1 F2700 E-5
;LAYER_COUNT:101
;LAYER:0
M107
M204 S500
M205 X8 Y8
G1 F300 Z0.4
G0 F6000 X15.539 Y69.95 Z0.4
;TYPE:SKIRT
G1 F300 Z0.2
G1 F2700 E0
G1 F1200 X16.313 Y69.791 E0.02628
G1 X17.098 Y69.71 E0.05253
G1 X17.5 Y69.7 E0.0659
G1 X97.5 Y69.7 E2.72671
G1 X98.289 Y69.74 E2.75299
G1 X99.069 Y69.859 E2.77923
G1 X99.834 Y70.057 E2.80552
G1 X100.574 Y70.331 E2.83176
G1 X101.283 Y70.679 E2.85803
G1 X101.954 Y71.097 E2.88432
G1 X102.578 Y71.58 E2.91057
G1 X103.151 Y72.123 E2.93683
G1 X103.666 Y72.722 E2.9631
G1 X104.117 Y73.37 E2.98936
G1 X104.501 Y74.061 E3.01565
G1 X104.813 Y74.786 E3.0419
G1 X105.05 Y75.539 E3.06816
G1 X105.209 Y76.313 E3.09444
G1 X105.29 Y77.098 E3.12069
G1 X105.3 Y77.5 E3.13406
G1 X105.3 Y80.025 E3.21804
G1 X105.539 Y79.95 E3.22638
G1 X106.313 Y79.791 E3.25266
G1 X107.098 Y79.71 E3.2789
G1 X107.5 Y79.7 E3.29228
G1 X167.5 Y79.7 E5.28789
G1 X168.289 Y79.74 E5.31416
G1 X169.069 Y79.859 E5.34041
G1 X169.834 Y80.057 E5.36669
G1 X170.574 Y80.331 E5.39293
G1 X171.283 Y80.679 E5.4192
G1 X171.954 Y81.097 E5.4455
G1 X172.578 Y81.58 E5.47174
G1 X173.151 Y82.123 E5.498
G1 X173.666 Y82.722 E5.52427
G1 X174.117 Y83.37 E5.55053
G1 X174.501 Y84.061 E5.57682
G1 X174.813 Y84.786 E5.60308
G1 X175.05 Y85.539 E5.62933
G1 X175.209 Y86.313 E5.65561
G1 X175.29 Y87.098 E5.68186
G1 X175.3 Y87.5 E5.69524
G1 X175.3 Y90.025 E5.77922
G1 X175.539 Y89.95 E5.78755
G1 X176.313 Y89.791 E5.81383
G1 X177.098 Y89.71 E5.84008
G1 X177.5 Y89.7 E5.85345
G1 X217.5 Y89.7 E7.18386
G1 X218.289 Y89.74 E7.21013
G1 X219.069 Y89.859 E7.23638
G1 X219.834 Y90.057 E7.26266
G1 X220.574 Y90.331 E7.2889
G1 X221.283 Y90.679 E7.31517
G1 X221.954 Y91.097 E7.34147
G1 X222.578 Y91.58 E7.36771
G1 X223.151 Y92.123 E7.39397
G1 X223.666 Y92.722 E7.42024
G1 X224.117 Y93.37 E7.4465
G1 X224.501 Y94.061 E7.47279
G1 X224.813 Y94.786 E7.49905
G1 X225.05 Y95.539 E7.5253
G1 X225.209 Y96.313 E7.55158
G1 X225.29 Y97.098 E7.57783
G1 X225.3 Y97.5 E7.59121
G1 X225.3 Y137.5 E8.92161
G1 X225.26 Y138.289 E8.94789
G1 X225.141 Y139.069 E8.97413
G1 X224.943 Y139.834 E9.00041
G1 X224.669 Y140.574 E9.02666
G1 X224.321 Y141.283 E9.05293
G1 X223.903 Y141.954 E9.07922
G1 X223.42 Y142.578 E9.10547
G1 X222.877 Y143.151 E9.13172
G1 X222.278 Y143.666 E9.158
G1 X221.63 Y144.117 E9.18425
G1 X220.939 Y144.501 E9.21055
G1 X220.214 Y144.813 E9.2368
G1 X219.461 Y145.05 E9.26306
G1 X218.687 Y145.209 E9.28934
G1 X217.902 Y145.29 E9.31558
G1 X217.5 Y145.3 E9.32896
G1 X177.5 Y145.3 E10.65936
G1 X176.711 Y145.26 E10.68564
G1 X175.931 Y145.141 E10.71188
G1 X175.3 Y144.978 E10.73356
G1 X175.3 Y147.5 E10.81744
G1 X175.26 Y148.289 E10.84372
G1 X175.141 Y149.069 E10.86996
G1 X174.943 Y149.834 E10.89624
G1 X174.669 Y150.574 E10.92249
G1 X174.321 Y151.283 E10.94876
G1 X173.903 Y151.954 E10.97505
G1 X173.42 Y152.578 E11.0013
G1 X172.877 Y153.151 E11.02755
G1 X172.278 Y153.666 E11.05383
G1 X171.63 Y154.117 E11.08008
G1 X170.939 Y154.501 E11.10638
G1 X170.214 Y154.813 E11.13263
G1 X169.461 Y155.05 E11.15889
G1 X168.687 Y155.209 E11.18517
G1 X167.902 Y155.29 E11.21141
G1 X167.5 Y155.3 E11.22479
G1 X107.5 Y155.3 E13.2204
G1 X106.711 Y155.26 E13.24667
G1 X105.931 Y155.141 E13.27292
G1 X105.3 Y154.978 E13.29459
G1 X105.3 Y157.5 E13.37847
G1 X105.26 Y158.289 E13.40475
G1 X105.141 Y159.069 E13.43099
G1 X104.943 Y159.834 E13.45728
G1 X104.669 Y160.574 E13.48352
G1 X104.321 Y161.283 E13.50979
G1 X103.903 Y161.954 E13.53608
G1 X103.42 Y162.578 E13.56233
G1 X102.877 Y163.151 E13.58859
G1 X102.278 Y163.666 E13.61486
G1 X101.63 Y164.117 E13.64112
G1 X100.939 Y164.501 E13.66741
G1 X100.214 Y164.813 E13.69366
G1 X99.461 Y165.05 E13.71992
G1 X98.687 Y165.209 E13.7462
G1 X97.902 Y165.29 E13.77245
G1 X97.5 Y165.3 E13.78582
G1 X17.5 Y165.3 E16.44663
G1 X16.711 Y165.26 E16.47291
G1 X15.931 Y165.141 E16.49915
G1 X15.166 Y164.943 E16.52543
G1 X14.426 Y164.669 E16.55168
G1 X13.717 Y164.321 E16.57795
G1 X13.046 Y163.903 E16.60424
G1 X12.422 Y163.42 E16.63049
G1 X11.849 Y162.877 E16.65674
G1 X11.334 Y162.278 E16.68302
G1 X10.883 Y161.63 E16.70928
G1 X10.499 Y160.939 E16.73557
G1 X10.187 Y160.214 E16.76182
G1 X9.95 Y159.461 E16.78808
G1 X9.791 Y158.687 E16.81436
G1 X9.71 Y157.902 E16.84061
G1 X9.7 Y157.5 E16.85398
G1 X9.7 Y77.5 E19.51479
G1 X9.74 Y76.711 E19.54107
G1 X9.859 Y75.931 E19.56731
G1 X10.057 Y75.166 E19.59359
G1 X10.331 Y74.426 E19.61984
G1 X10.679 Y73.717 E19.64611
G1 X11.097 Y73.046 E19.6724
G1 X11.58 Y72.422 E19.69865
G1 X12.123 Y71.849 E19.7249
G1 X12.722 Y71.334 E19.75118
G1 X13.37 Y70.883 E19.77744
G1 X14.061 Y70.499 E19.80373
G1 X14.786 Y70.187 E19.82998
G1 X15.539 Y69.95 E19.85624
G0 F6000 X15.893 Y70.277
G1 F1200 X16.651 Y70.149 E19.8818
G1 X17.5 Y70.1 E19.91009
G1 X97.5 Y70.1 E22.5709
G1 X98.268 Y70.14 E22.59648
G1 X99.028 Y70.259 E22.62206
G1 X99.771 Y70.457 E22.64764
G1 X100.49 Y70.731 E22.67323
G1 X101.176 Y71.078 E22.6988
G1 X101.823 Y71.494 E22.72438
G1 X102.423 Y71.975 E22.74996
G1 X102.97 Y72.516 E22.77555
G1 X103.458 Y73.111 E22.80114
G1 X103.881 Y73.753 E22.82672
G1 X104.236 Y74.436 E22.85232
G1 X104.517 Y75.151 E22.87787
G1 X104.723 Y75.893 E22.90348
G1 X104.851 Y76.651 E22.92905
G1 X104.9 Y77.5 E22.95733
G1 X104.9 Y80.582 E23.05984
G1 X105.151 Y80.483 E23.06882
G1 X105.893 Y80.277 E23.09443
G1 X106.651 Y80.149 E23.12
G1 X107.5 Y80.1 E23.14828
G1 X167.5 Y80.1 E25.14389
G1 X168.268 Y80.14 E25.16947
G1 X169.028 Y80.259 E25.19505
G1 X169.771 Y80.457 E25.22063
G1 X170.49 Y80.731 E25.24622
G1 X171.176 Y81.078 E25.27179
G1 X171.823 Y81.494 E25.29737
G1 X172.423 Y81.975 E25.32295
G1 X172.97 Y82.516 E25.34854
G1 X173.458 Y83.111 E25.37413
G1 X173.881 Y83.753 E25.3997
G1 X174.236 Y84.436 E25.42531
G1 X174.517 Y85.151 E25.45086
G1 X174.723 Y85.893 E25.47647
G1 X174.851 Y86.651 E25.50204
G1 X174.9 Y87.5 E25.53032
G1 X174.9 Y90.582 E25.63283
G1 X175.151 Y90.483 E25.64181
G1 X175.893 Y90.277 E25.66742
G1 X176.651 Y90.149 E25.69299
G1 X177.5 Y90.1 E25.72127
G1 X217.5 Y90.1 E27.05168
G1 X218.268 Y90.14 E27.07725
G1 X219.028 Y90.259 E27.10284
G1 X219.771 Y90.457 E27.12841
G1 X220.49 Y90.731 E27.15401
G1 X221.176 Y91.078 E27.17958
G1 X221.823 Y91.494 E27.20516
G1 X222.423 Y91.975 E27.23074
G1 X222.97 Y92.516 E27.25632
G1 X223.458 Y93.111 E27.28192
G1 X223.881 Y93.753 E27.30749
G1 X224.236 Y94.436 E27.33309
G1 X224.517 Y95.151 E27.35864
G1 X224.723 Y95.893 E27.38426
G1 X224.851 Y96.651 E27.40982
G1 X224.9 Y97.5 E27.43811
G1 X224.9 Y137.5 E28.76852
G1 X224.86 Y138.268 E28.79409
G1 X224.741 Y139.028 E28.81968
G1 X224.543 Y139.771 E28.84525
G1 X224.269 Y140.49 E28.87085
G1 X223.922 Y141.176 E28.89641
G1 X223.506 Y141.823 E28.922
G1 X223.025 Y142.423 E28.94758
G1 X222.484 Y142.97 E28.97316
G1 X221.889 Y143.458 E28.99876
G1 X221.247 Y143.881 E29.02433
G1 X220.564 Y144.236 E29.04993
G1 X219.849 Y144.517 E29.07548
G1 X219.107 Y144.723 E29.1011
G1 X218.349 Y144.851 E29.12666
G1 X217.5 Y144.9 E29.15495
G1 X177.5 Y144.9 E30.48535
G1 X176.732 Y144.86 E30.51093
G1 X175.972 Y144.741 E30.53652
G1 X175.229 Y144.543 E30.56209
G1 X174.9 Y144.418 E30.5738
G1 X174.9 Y147.5 E30.67631
G1 X174.86 Y148.268 E30.70188
G1 X174.741 Y149.028 E30.72747
G1 X174.543 Y149.771 E30.75305
G1 X174.269 Y150.49 E30.77864
G1 X173.922 Y151.176 E30.80421
G1 X173.506 Y151.823 E30.82979
G1 X173.025 Y152.423 E30.85537
G1 X172.484 Y152.97 E30.88096
G1 X171.889 Y153.458 E30.90655
G1 X171.247 Y153.881 E30.93212
G1 X170.564 Y154.236 E30.95772
G1 X169.849 Y154.517 E30.98327
G1 X169.107 Y154.723 E31.00889
G1 X168.349 Y154.851 E31.03446
G1 X167.5 Y154.9 E31.06274
G1 X107.5 Y154.9 E33.05835
G1 X106.732 Y154.86 E33.08393
G1 X105.972 Y154.741 E33.10951
G1 X105.229 Y154.543 E33.13509
G1 X104.9 Y154.418 E33.14679
G1 X104.9 Y157.5 E33.2493
G1 X104.86 Y158.268 E33.27488
G1 X104.741 Y159.028 E33.30046
G1 X104.543 Y159.771 E33.32604
G1 X104.269 Y160.49 E33.35163
G1 X103.922 Y161.176 E33.3772
G1 X103.506 Y161.823 E33.40278
G1 X103.025 Y162.423 E33.42836
G1 X102.484 Y162.97 E33.45395
G1 X101.889 Y163.458 E33.47954
G1 X101.247 Y163.881 E33.50512
G1 X100.564 Y164.236 E33.53072
G1 X99.849 Y164.517 E33.55627
G1 X99.107 Y164.723 E33.58188
G1 X98.349 Y164.851 E33.60745
G1 X97.5 Y164.9 E33.63573
G1 X17.5 Y164.9 E36.29655
G1 X16.732 Y164.86 E36.32212
G1 X15.972 Y164.741 E36.34771
G1 X15.229 Y164.543 E36.37328
G1 X14.51 Y164.269 E36.39888
G1 X13.824 Y163.922 E36.42445
G1 X13.177 Y163.506 E36.45003
G1 X12.577 Y163.025 E36.47561
G1 X12.03 Y162.484 E36.50119
G1 X11.542 Y161.889 E36.52679
G1 X11.119 Y161.247 E36.55236
G1 X10.764 Y160.564 E36.57796
G1 X10.483 Y159.849 E36.60351
G1 X10.277 Y159.107 E36.62913
G1 X10.149 Y158.349 E36.65469
G1 X10.1 Y157.5 E36.68298
G1 X10.1 Y77.5 E39.34379
G1 X10.14 Y76.732 E39.36937
G1 X10.259 Y75.972 E39.39495
G1 X10.457 Y75.229 E39.42053
G1 X10.731 Y74.51 E39.44612
G1 X11.078 Y73.824 E39.47169
G1 X11.494 Y73.177 E39.49727
G1 X11.975 Y72.577 E39.52285
G1 X12.516 Y72.03 E39.54844
G1 X13.111 Y71.542 E39.57403
G1 X13.753 Y71.119 E39.5996
G1 X14.436 Y70.764 E39.62521
G1 X15.151 Y70.483 E39.65076
G1 X15.893 Y70.277 E39.67637
G0 F6000 X15.513 Y70.788
G1 F1200 X16.241 Y70.614 E39.70127
G1 X16.983 Y70.519 E39.72615
G1 X17.5 Y70.5 E39.74335
G1 X97.5 Y70.5 E42.40416
G1 X98.247 Y70.54 E42.42905
G1 X98.985 Y70.659 E42.45391
G1 X99.707 Y70.857 E42.47881
G1 X100.403 Y71.13 E42.50367
G1 X101.066 Y71.477 E42.52856
G1 X101.689 Y71.892 E42.55346
G1 X102.263 Y72.371 E42.57833
G1 X102.784 Y72.908 E42.60321
G1 X103.243 Y73.498 E42.62807
G1 X103.638 Y74.134 E42.65298
G1 X103.962 Y74.808 E42.67785
G1 X104.212 Y75.513 E42.70273
G1 X104.386 Y76.241 E42.72762
G1 X104.481 Y76.983 E42.7525
G1 X104.5 Y77.5 E42.76971
G1 X104.5 Y81.186 E42.89231
G1 X104.808 Y81.038 E42.90367
G1 X105.513 Y80.788 E42.92855
G1 X106.241 Y80.614 E42.95345
G1 X106.983 Y80.519 E42.97833
G1 X107.5 Y80.5 E42.99554
G1 X167.5 Y80.5 E44.99114
G1 X168.247 Y80.54 E45.01602
G1 X168.985 Y80.659 E45.04089
G1 X169.707 Y80.857 E45.06579
G1 X170.403 Y81.13 E45.09065
G1 X171.066 Y81.477 E45.11554
G1 X171.689 Y81.892 E45.14044
G1 X172.263 Y82.371 E45.16531
G1 X172.784 Y82.908 E45.19019
G1 X173.243 Y83.498 E45.21505
G1 X173.638 Y84.134 E45.23996
G1 X173.962 Y84.808 E45.26483
G1 X174.212 Y85.513 E45.28971
G1 X174.386 Y86.241 E45.3146
G1 X174.481 Y86.983 E45.33948
G1 X174.5 Y87.5 E45.35669
G1 X174.5 Y91.186 E45.47929
G1 X174.808 Y91.038 E45.49065
G1 X175.513 Y90.788 E45.51553
G1 X176.241 Y90.614 E45.54043
G1 X176.983 Y90.519 E45.56531
G1 X177.5 Y90.5 E45.58251
G1 X217.5 Y90.5 E46.91292
G1 X218.247 Y90.54 E46.9378
G1 X218.985 Y90.659 E46.96266
G1 X219.707 Y90.857 E46.98756
G1 X220.403 Y91.13 E47.01243
G1 X221.066 Y91.477 E47.03732
G1 X221.689 Y91.892 E47.06222
G1 X222.263 Y92.371 E47.08708
G1 X222.784 Y92.908 E47.11197
G1 X223.243 Y93.498 E47.13683
G1 X223.638 Y94.134 E47.16173
G1 X223.962 Y94.808 E47.1866
G1 X224.212 Y95.513 E47.21148
G1 X224.386 Y96.241 E47.23638
G1 X224.481 Y96.983 E47.26126
G1 X224.5 Y97.5 E47.27847
G1 X224.5 Y137.5 E48.60887
G1 X224.46 Y138.247 E48.63375
G1 X224.341 Y138.985 E48.65862
G1 X224.143 Y139.707 E48.68352
G1 X223.87 Y140.403 E48.70838
G1 X223.523 Y141.066 E48.73327
G1 X223.108 Y141.689 E48.75817
G1 X222.629 Y142.263 E48.78303
G1 X222.092 Y142.784 E48.80792
G1 X221.502 Y143.243 E48.83278
G1 X220.866 Y143.638 E48.85768
G1 X220.192 Y143.962 E48.88256
G1 X219.487 Y144.212 E48.90744
G1 X218.759 Y144.386 E48.93233
G1 X218.017 Y144.481 E48.95721
G1 X217.5 Y144.5 E48.97442
G1 X177.5 Y144.5 E50.30482
G1 X176.753 Y144.46 E50.3297
G1 X176.015 Y144.341 E50.35457
G1 X175.293 Y144.143 E50.37947
G1 X174.597 Y143.87 E50.40433
G1 X174.5 Y143.819 E50.40798
G1 X174.5 Y147.5 E50.53041
G1 X174.46 Y148.247 E50.55529
G1 X174.341 Y148.985 E50.58015
G1 X174.143 Y149.707 E50.60505
G1 X173.87 Y150.403 E50.62992
G1 X173.523 Y151.066 E50.65481
G1 X173.108 Y151.689 E50.67971
G1 X172.629 Y152.263 E50.70457
G1 X172.092 Y152.784 E50.72946
G1 X171.502 Y153.243 E50.75432
G1 X170.866 Y153.638 E50.77922
G1 X170.192 Y153.962 E50.80409
G1 X169.487 Y154.212 E50.82897
G1 X168.759 Y154.386 E50.85387
G1 X168.017 Y154.481 E50.87875
G1 X167.5 Y154.5 E50.89596
G1 X107.5 Y154.5 E52.89156
G1 X106.753 Y154.46 E52.91645
G1 X106.015 Y154.341 E52.94131
G1 X105.293 Y154.143 E52.96621
G1 X104.597 Y153.87 E52.99108
G1 X104.5 Y153.819 E52.99472
G1 X104.5 Y157.5 E53.11715
G1 X104.46 Y158.247 E53.14203
G1 X104.341 Y158.985 E53.16689
G1 X104.143 Y159.707 E53.1918
G1 X103.87 Y160.403 E53.21666
G1 X103.523 Y161.066 E53.24155
G1 X103.108 Y161.689 E53.26645
G1 X102.629 Y162.263 E53.29131
G1 X102.092 Y162.784 E53.3162
G1 X101.502 Y163.243 E53.34106
G1 X100.866 Y163.638 E53.36596
G1 X100.192 Y163.962 E53.39084
G1 X99.487 Y164.212 E53.41571
G1 X98.759 Y164.386 E53.44061
G1 X98.017 Y164.481 E53.46549
G1 X97.5 Y164.5 E53.4827
G1 X17.5 Y164.5 E56.14351
G1 X16.753 Y164.46 E56.16839
G1 X16.015 Y164.341 E56.19325
G1 X15.293 Y164.143 E56.21815
G1 X14.597 Y163.87 E56.24302
G1 X13.934 Y163.523 E56.26791
G1 X13.311 Y163.108 E56.29281
G1 X12.737 Y162.629 E56.31767
G1 X12.216 Y162.092 E56.34256
G1 X11.757 Y161.502 E56.36742
G1 X11.362 Y160.866 E56.39232
G1 X11.038 Y160.192 E56.41719
G1 X10.788 Y159.487 E56.44207
G1 X10.614 Y158.759 E56.46697
G1 X10.519 Y158.017 E56.49185
G1 X10.5 Y157.5 E56.50906
G1 X10.5 Y77.5 E59.16987
G1 X10.54 Y76.753 E59.19475
G1 X10.659 Y76.015 E59.21961
G1 X10.857 Y75.293 E59.24451
G1 X11.13 Y74.597 E59.26938
G1 X11.477 Y73.934 E59.29427
G1 X11.892 Y73.311 E59.31916
G1 X12.371 Y72.737 E59.34403
G1 X12.908 Y72.216 E59.36891
G1 X13.498 Y71.757 E59.39378
G1 X14.134 Y71.362 E59.41868
G1 X14.808 Y71.038 E59.44355
G1 X15.513 Y70.788 E59.46843
G0 F6000 X15.871 Y71.104
G1 F1200 X16.583 Y70.964 E59.49256
G1 X17.5 Y70.9 E59.52314
G1 X97.5 Y70.9 E62.18395
G1 X98.225 Y70.94 E62.2081
G1 X98.942 Y71.059 E62.23227
G1 X99.641 Y71.257 E62.25644
G1 X100.314 Y71.53 E62.28059
G1 X100.953 Y71.875 E62.30475
G1 X101.55 Y72.289 E62.32891
G1 X102.098 Y72.765 E62.35305
G1 X102.591 Y73.299 E62.37722
G1 X103.021 Y73.884 E62.40137
G1 X103.385 Y74.513 E62.42554
G1 X103.678 Y75.178 E62.44971
G1 X103.896 Y75.871 E62.47388
G1 X104.036 Y76.583 E62.49801
G1 X104.1 Y77.5 E62.52858
G1 X104.1 Y81.854 E62.6734
G1 X104.513 Y81.615 E62.68927
G1 X105.178 Y81.322 E62.71344
G1 X105.871 Y81.104 E62.7376
G1 X106.583 Y80.964 E62.76174
G1 X107.5 Y80.9 E62.79231
G1 X167.5 Y80.9 E64.78792
G1 X168.225 Y80.94 E64.81207
G1 X168.942 Y81.059 E64.83624
G1 X169.641 Y81.257 E64.86041
G1 X170.314 Y81.53 E64.88456
G1 X170.953 Y81.875 E64.90871
G1 X171.55 Y82.289 E64.93288
G1 X172.098 Y82.765 E64.95702
G1 X172.591 Y83.299 E64.98119
G1 X173.021 Y83.884 E65.00534
G1 X173.385 Y84.513 E65.02951
G1 X173.678 Y85.178 E65.05368
G1 X173.896 Y85.871 E65.07784
G1 X174.036 Y86.583 E65.10198
G1 X174.1 Y87.5 E65.13255
G1 X174.1 Y91.854 E65.27737
G1 X174.513 Y91.615 E65.29324
G1 X175.178 Y91.322 E65.31741
G1 X175.871 Y91.104 E65.34157
G1 X176.583 Y90.964 E65.36571
G1 X177.5 Y90.9 E65.39628
G1 X217.5 Y90.9 E66.72668
G1 X218.225 Y90.94 E66.75084
G1 X218.942 Y91.059 E66.77501
G1 X219.641 Y91.257 E66.79917
G1 X220.314 Y91.53 E66.82333
G1 X220.953 Y91.875 E66.84748
G1 X221.55 Y92.289 E66.87164
G1 X222.098 Y92.765 E66.89579
G1 X222.591 Y93.299 E66.91996
G1 X223.021 Y93.884 E66.94411
G1 X223.385 Y94.513 E66.96828
G1 X223.678 Y95.178 E66.99245
G1 X223.896 Y95.871 E67.01661
G1 X224.036 Y96.583 E67.04075
G1 X224.1 Y97.5 E67.07132
G1 X224.1 Y137.5 E68.40173
